Kcygt/SemiCircleTrajectory_MATLAB/data.csv
t,q1,q2,q3,q4,q5,q6,q7,qp1,qp2,qp3,qp4,qp5,qp6,qp7,xd,yd,zd,vxd,vyd,vzd,wxd,wyd,wzd,x,y,z,vx,vy,vz,wx,wy,wz
0.0106154,4.8378e-07,-1.10829,1.83694e-07,2.21653,-9.33147e-07,0.610909,1.0106e-06,4.55735e-05,-0.000222426,1.73045e-05,-0.00390349,-8.7905e-05,0.00412591,9.52014e-05,0,0,0,-0.0006216,0,0.00107657,0,0,0,0.0702441,-0.0246,0.588068,0,0,0,0,0,0
0.0122338,5.68778e-07,-1.10829,2.15971e-07,2.21652,-1.09708e-06,0.610917,1.18814e-06,5.25196e-05,-0.000255791,1.99435e-05,-0.00449873,-0.000101291,0.00475452,0.000109698,0,0,0,-0.000716266,0,0.00124076,0,0,0,0.070243,-0.0246,0.58807,0,0,0,0,0,0
0.013573,6.4681e-07,-1.10829,2.45603e-07,2.21651,-1.24757e-06,0.610924,1.35112e-06,5.82675e-05,-0.000283626,2.21265e-05,-0.00499124,-0.000112374,0.00527486,0.000121701,0,0,0,-0.000794636,0,0.0013766,0,0,0,0.0702419,-0.0246,0.588072,0,0,0,0,0,0
0.0157526,7.94201e-07,-1.10829,3.01574e-07,2.2165,-1.53182e-06,0.610937,1.65896e-06,6.76229e-05,-0.000328993,2.56794e-05,-0.00579279,-0.000130415,0.00612178,0.000141239,0,0,0,-0.000922201,0,0.00159768,0,0,0,0.0702399,-0.0246,0.588075,0,0,0,0,0,0
0.0168738,8.75413e-07,-1.10829,3.32414e-07,2.21649,-1.68844e-06,0.610944,1.82858e-06,7.24332e-05,-0.000352053,2.75068e-05,-0.00620518,-0.000139687,0.00655724,0.00015128,0,0,0,-0.000987759,0,0.00171144,0,0,0,0.0702388,-0.0246,0.588077,0,0,0,0,0,0
0.0180158,9.63728e-07,-1.10829,3.65953e-07,2.21649,-1.85875e-06,0.610952,2.01302e-06,7.73337e-05,-0.000375664,2.93681e-05,-0.0066252,-0.000149134,0.00700086,0.000161512,0,0,0,-0.00105456,0,0.0018273,0,0,0,0.0702376,-0.0246,0.588079,0,0,0,0,0,0
0.0191087,1.05337e-06,-1.10829,3.99996e-07,2.21648,-2.03162e-06,0.610961,2.20024e-06,8.20231e-05,-0.000398204,3.11494e-05,-0.00702716,-0.000158174,0.00742537,0.000171302,0,0,0,-0.00111848,0,0.00193818,0,0,0,0.0702364,-0.0246,0.588082,0,0,0,0,0,0
0.0201088,1.13969e-06,-1.10829,4.32779e-07,2.21647,-2.19808e-06,0.610968,2.38052e-06,8.63139e-05,-0.000418778,3.27793e-05,-0.00739501,-0.000166445,0.00781379,0.000180258,0,0,0,-0.00117696,0,0.00203966,0,0,0,0.0702352,-0.0246,0.588084,0,0,0,0,0,0
0.021109,1.23032e-06,-1.10829,4.67195e-07,2.21646,-2.37283e-06,0.610977,2.56977e-06,9.06049e-05,-0.000439338,3.44094e-05,-0.0077629,-0.000174716,0.00820224,0.000189216,0,0,0,-0.00123543,0,0.00214115,0,0,0,0.070234,-0.0246,0.588086,0,0,0,0,0,0
0.0227225,1.38768e-06,-1.10829,5.26957e-07,2.21645,-2.67627e-06,0.610991,2.89839e-06,9.7528e-05,-0.000472613,3.70391e-05,-0.00835635,-0.000188062,0.00882896,0.000203669,0,0,0,-0.0013298,0,0.00230485,0,0,0,0.0702318,-0.0246,0.58809,0,0,0,0,0,0
0.0239471,1.51354e-06,-1.10829,5.74759e-07,2.21644,-2.91896e-06,0.611002,3.16122e-06,0.00010278,-0.00049753,3.90346e-05,-0.00880684,-0.000198181,0.00930437,0.000214628,0,0,0,-0.00140134,0,0.00242914,0,0,0,0.0702301,-0.0246,0.588092,0,0,0,0,0,0
0.0249473,1.62063e-06,-1.10829,6.15432e-07,2.21643,-3.12545e-06,0.611012,3.38484e-06,0.000107069,-0.000517844,4.06644e-05,-0.00917479,-0.000206445,0.00969264,0.000223577,0,0,0,-0.00145976,0,0.00253066,0,0,0,0.0702286,-0.0246,0.588095,0,0,0,0,0,0
0.0259474,1.732e-06,-1.10829,6.5773e-07,2.21642,-3.34018e-06,0.611022,3.61739e-06,0.000111358,-0.00053819,4.2294e-05,-0.0095427,-0.000214709,0.0100809,0.000232527,0,0,0,-0.00151819,0,0.00263216,0,0,0,0.0702271,-0.0246,0.588098,0,0,0,0,0,0
0.0269475,1.84766e-06,-1.10829,7.01658e-07,2.21641,-3.56317e-06,0.611033,3.85889e-06,0.000115646,-0.000558486,4.39236e-05,-0.00991061,-0.000222972,0.0104691,0.000241475,0,0,0,-0.0015766,0,0.00273367,0,0,0,0.0702255,-0.0246,0.5881,0,0,0,0,0,0
0.0279476,1.96761e-06,-1.10829,7.47216e-07,2.2164,-3.79443e-06,0.611043,4.10934e-06,0.000119935,-0.000578731,4.55531e-05,-0.0102785,-0.000231233,0.0108573,0.000250422,0,0,0,-0.00163501,0,0.00283519,0,0,0,0.0702239,-0.0246,0.588103,0,0,0,0,0,0
0.0289478,2.09185e-06,-1.10829,7.94408e-07,2.21639,-4.03397e-06,0.611055,4.36876e-06,0.000124223,-0.000598925,4.71827e-05,-0.0106465,-0.000239493,0.0112454,0.000259367,0,0,0,-0.0016934,0,0.00293673,0,0,0,0.0702222,-0.0246,0.588106,0,0,0,0,0,0
0.0303006,2.26775e-06,-1.1083,8.61218e-07,2.21637,-4.37307e-06,0.611071,4.73601e-06,0.000130023,-0.000626352,4.93869e-05,-0.0111442,-0.000250669,0.0117706,0.00027147,0,0,0,-0.00177241,0,0.00307404,0,0,0,0.0702198,-0.0246,0.58811,0,0,0,0,0,0
0.0314984,2.42964e-06,-1.1083,9.22711e-07,2.21636,-4.68516e-06,0.611085,5.074e-06,0.000135157,-0.000650288,5.13381e-05,-0.0115849,-0.000260554,0.0122352,0.000282175,0,0,0,-0.00184229,0,0.00319567,0,0,0,0.0702176,-0.0246,0.588114,0,0,0,0,0,0
0.0326839,2.59589e-06,-1.1083,9.85862e-07,2.21635,-5.00565e-06,0.6111,5.42107e-06,0.000140237,-0.000673974,5.32693e-05,-0.0120212,-0.000270338,0.0126951,0.00029277,0,0,0,-0.00191145,0,0.00331604,0,0,0,0.0702154,-0.0246,0.588118,0,0,0,0,0,0
0.033879,2.76961e-06,-1.1083,1.05185e-06,2.21633,-5.34052e-06,0.611116,5.78373e-06,0.000145358,-0.000697778,5.5216e-05,-0.0124609,-0.000280199,0.0131587,0.000303449,0,0,0,-0.00198115,0,0.00343741,0,0,0,0.070213,-0.0246,0.588122,0,0,0,0,0,0
0.0350642,2.94791e-06,-1.1083,1.11958e-06,2.21632,-5.68419e-06,0.611132,6.15592e-06,0.000150436,-0.000721279,5.71464e-05,-0.0128971,-0.000289975,0.0136183,0.000314036,0,0,0,-0.00205025,0,0.00355778,0,0,0,0.0702106,-0.0246,0.588126,0,0,0,0,0,0
0.0362467,3.13179e-06,-1.1083,1.18943e-06,2.2163,-6.03862e-06,0.611149,6.53976e-06,0.000155502,-0.000744638,5.90723e-05,-0.0133322,-0.000299726,0.0140769,0.000324595,0,0,0,-0.00211917,0,0.00367789,0,0,0,0.070208,-0.0246,0.588131,0,0,0,0,0,0
0.0378602,3.39385e-06,-1.1083,1.28899e-06,2.21628,-6.5437e-06,0.611172,7.08675e-06,0.000162416,-0.000776744,6.17005e-05,-0.013926,-0.000313038,0.0147027,0.000339011,0,0,0,-0.00221327,0,0.00384174,0,0,0,0.0702045,-0.0246,0.588137,0,0,0,0,0,0
0.0391874,3.61694e-06,-1.1083,1.37374e-06,2.21626,-6.97367e-06,0.611193,7.55239e-06,0.000168097,-0.000802445,6.38614e-05,-0.0144145,-0.000323967,0.015217,0.000350847,0,0,0,-0.0022905,0,0.00397662,0,0,0,0.0702014,-0.0246,0.588142,0,0,0,0,0,0
0.0403766,3.8229e-06,-1.1083,1.45199e-06,2.21624,-7.37058e-06,0.611211,7.98223e-06,0.000173187,-0.000825451,6.57976e-05,-0.0148523,-0.000333759,0.0156777,0.000361451,0,0,0,-0.00235971,0,0.00409747,0,0,0,0.0701986,-0.0246,0.588147,0,0,0,0,0,0
0.0413767,4.00038e-06,-1.1083,1.51942e-06,2.21623,-7.7126e-06,0.611227,8.35263e-06,0.000177467,-0.000844621,6.74256e-05,-0.0152205,-0.000341989,0.0160651,0.000370363,0,0,0,-0.00241786,0,0.00419913,0,0,0,0.0701962,-0.0246,0.588151,0,0,0,0,0,0
0.0423769,4.18217e-06,-1.1083,1.58849e-06,2.21621,-8.0629e-06,0.611244,8.73199e-06,0.000181748,-0.00086391,6.9054e-05,-0.0155887,-0.000350224,0.0164526,0.00037928,0,0,0,-0.00247605,0,0.00430078,0,0,0,0.0701937,-0.0246,0.588156,0,0,0,0,0,0
0.0433771,4.36823e-06,-1.10831,1.65919e-06,2.21619,-8.42142e-06,0.611261,9.12026e-06,0.000186028,-0.000883118,7.06822e-05,-0.0159569,-0.000358455,0.01684,0.000388194,0,0,0,-0.00253423,0,0.00440245,0,0,0,0.0701912,-0.0246,0.58816,0,0,0,0,0,0
0.044581,4.59839e-06,-1.10831,1.74664e-06,2.21617,-8.8649e-06,0.611282,9.60053e-06,0.000191181,-0.000906384,7.26423e-05,-0.0164001,-0.000368368,0.0173065,0.000398928,0,0,0,-0.00260428,0,0.0045248,0,0,0,0.0701881,-0.0246,0.588165,0,0,0,0,0,0
0.0455812,4.79389e-06,-1.10831,1.82093e-06,2.21616,-9.24156e-06,0.611299,1.00084e-05,0.000195458,-0.000925148,7.42699e-05,-0.0167684,-0.000376587,0.0176936,0.000407828,0,0,0,-0.00266235,0,0.00462652,0,0,0,0.0701854,-0.0246,0.58817,0,0,0,0,0,0
0.0465813,4.99365e-06,-1.10831,1.89683e-06,2.21614,-9.62641e-06,0.611317,1.04252e-05,0.000199735,-0.000944079,7.58976e-05,-0.0171367,-0.00038481,0.0180807,0.000416733,0,0,0,-0.00272045,0,0.00472821,0,0,0,0.0701827,-0.0246,0.588175,0,0,0,0,0,0
0.0475814,5.19768e-06,-1.10831,1.97436e-06,2.21612,-1.00195e-05,0.611336,1.08509e-05,0.000204012,-0.000962922,7.75252e-05,-0.0175049,-0.000393031,0.0184679,0.000425635,0,0,0,-0.00277853,0,0.00482991,0,0,0,0.0701799,-0.0246,0.58818,0,0,0,0,0,0
0.0485815,5.40599e-06,-1.10831,2.05352e-06,2.2161,-1.04208e-05,0.611355,1.12855e-05,0.000208288,-0.000981673,7.91526e-05,-0.0178732,-0.000401249,0.0188549,0.000434534,0,0,0,-0.00283659,0,0.00493163,0,0,0,0.0701771,-0.0246,0.588185,0,0,0,0,0,0
0.0495816,5.61857e-06,-1.10831,2.13431e-06,2.21609,-1.08303e-05,0.611374,1.17289e-05,0.000212563,-0.00100033,8.07799e-05,-0.0182416,-0.000409464,0.0192419,0.000443429,0,0,0,-0.00289463,0,0.00503335,0,0,0,0.0701742,-0.0246,0.58819,0,0,0,0,0,0
0.0505817,5.83543e-06,-1.10831,2.21673e-06,2.21607,-1.1248e-05,0.611393,1.21813e-05,0.000216838,-0.00101889,8.24071e-05,-0.0186099,-0.000417676,0.0196288,0.000452322,0,0,0,-0.00295265,0,0.00513509,0,0,0,0.0701712,-0.0246,0.588195,0,0,0,0,0,0
0.0515819,6.05659e-06,-1.10831,2.30078e-06,2.21605,-1.1674e-05,0.611414,1.26426e-05,0.000221112,-0.00103736,8.40343e-05,-0.0189783,-0.000425887,0.0200157,0.000461213,0,0,0,-0.00301065,0,0.00523685,0,0,0,0.0701682,-0.0246,0.5882,0,0,0,0,0,0
0.052582,6.282e-06,-1.10831,2.38645e-06,2.21603,-1.21081e-05,0.611434,1.31128e-05,0.000225385,-0.00105572,8.56612e-05,-0.0193467,-0.000434093,0.0204024,0.000470099,0,0,0,-0.00306863,0,0.00533862,0,0,0,0.0701651,-0.0246,0.588205,0,0,0,0,0,0
0.0538566,6.57622e-06,-1.10832,2.49828e-06,2.216,-1.26747e-05,0.611461,1.37264e-05,0.000230834,-0.00107949,8.77351e-05,-0.0198161,-0.000444563,0.0208956,0.000481436,0,0,0,-0.00314259,0,0.00546827,0,0,0,0.0701611,-0.0246,0.588212,0,0,0,0,0,0
0.0551906,6.89175e-06,-1.10832,2.61821e-06,2.21598,-1.32824e-05,0.611489,1.43844e-05,0.000236532,-0.00110379,8.99049e-05,-0.0203075,-0.000455504,0.0214113,0.000493283,0,0,0,-0.00321988,0,0.00560403,0,0,0,0.0701568,-0.0246,0.58822,0,0,0,0,0,0
0.0564943,7.20737e-06,-1.10832,2.73818e-06,2.21595,-1.38902e-05,0.611518,1.50426e-05,0.000242098,-0.00112719,9.20249e-05,-0.0207879,-0.000466186,0.0219151,0.00050485,0,0,0,-0.00329533,0,0.00573676,0,0,0,0.0701525,-0.0246,0.588227,0,0,0,0,0,0
0.0576413,7.49067e-06,-1.10832,2.84587e-06,2.21593,-1.44356e-05,0.611543,1.56333e-05,0.000246991,-0.00114735,9.38895e-05,-0.0212106,-0.000475572,0.022358,0.000515013,0,0,0,-0.00336161,0,0.00585359,0,0,0,0.0701487,-0.0246,0.588234,0,0,0,0,0,0
0.0586635,7.7476e-06,-1.10832,2.94355e-06,2.2159,-1.49303e-05,0.611567,1.6169e-05,0.000251351,-0.0011652,9.55511e-05,-0.0215874,-0.000483933,0.0227526,0.000524067,0,0,0,-0.00342065,0,0.00595773,0,0,0,0.0701452,-0.0246,0.58824,0,0,0,0,0,0
0.0599622,8.08123e-06,-1.10832,3.07038e-06,2.21588,-1.55726e-05,0.611597,1.68646e-05,0.000256896,-0.00118868,9.76632e-05,-0.0220658,-0.000494579,0.0232545,0.000535594,0,0,0,-0.00349585,0,0.00608992,0,0,0,0.0701406,-0.0246,0.588248,0,0,0,0,0,0
0.0611297,8.38697e-06,-1.10832,3.18662e-06,2.21585,-1.61612e-05,0.611624,1.7502e-05,0.000261874,-0.00120876,9.95604e-05,-0.0224962,-0.00050412,0.023705,0.000545925,0,0,0,-0.00356321,0,0.0062089,0,0,0,0.0701365,-0.0246,0.588255,0,0,0,0,0,0
0.0622678,8.69053e-06,-1.10833,3.30203e-06,2.21582,-1.67455e-05,0.611652,1.81348e-05,0.000266726,-0.0012284,0.00010141,-0.0229158,-0.000513423,0.0241442,0.000555997,0,0,0,-0.0036289,0,0.00632487,0,0,0,0.0701324,-0.0246,0.588262,0,0,0,0,0,0
0.063383,8.99329e-06,-1.10833,3.41715e-06,2.2158,-1.73282e-05,0.611679,1.87658e-05,0.000271479,-0.00124751,0.000103222,-0.0233269,-0.000522534,0.0245744,0.000565863,0,0,0,-0.00369323,0,0.00643853,0,0,0,0.0701282,-0.0246,0.58827,0,0,0,0,0,0
0.0645003,9.30193e-06,-1.10833,3.5345e-06,2.21577,-1.79223e-05,0.611707,1.94091e-05,0.000276241,-0.00126656,0.000105038,-0.0237388,-0.00053166,0.0250054,0.000575744,0,0,0,-0.00375766,0,0.00655241,0,0,0,0.070124,-0.0246,0.588277,0,0,0,0,0,0
0.0656108,9.61395e-06,-1.10833,3.65315e-06,2.21574,-1.85227e-05,0.611736,2.00593e-05,0.000280973,-0.00128532,0.000106842,-0.0241482,-0.000540725,0.0254336,0.000585559,0,0,0,-0.00382166,0,0.00666562,0,0,0,0.0701198,-0.0246,0.588284,0,0,0,0,0,0
0.0667111,9.92826e-06,-1.10833,3.77268e-06,2.21572,-1.91276e-05,0.611764,2.07143e-05,0.000285659,-0.00130374,0.000108629,-0.024554,-0.000549703,0.0258577,0.000595279,0,0,0,-0.00388503,0,0.00677782,0,0,0,0.0701155,-0.0246,0.588292,0,0,0,0,0,0
0.0677112,1.02182e-05,-1.10833,3.88294e-06,2.21569,-1.96855e-05,0.61179,2.13185e-05,0.000289915,-0.00132008,0.000110253,-0.0249229,-0.000557851,0.026243,0.000604101,0,0,0,-0.00394254,0,0.00687985,0,0,0,0.0701116,-0.0246,0.588299,0,0,0,0,0,0
0.0687114,1.05124e-05,-1.10833,3.99484e-06,2.21567,-2.02516e-05,0.611817,2.19315e-05,0.000294174,-0.00133658,0.000111877,-0.0252917,-0.000566004,0.0266283,0.000612928,0,0,0,-0.00400009,0,0.00698187,0,0,0,0.0701076,-0.0246,0.588306,0,0,0,0,0,0
0.0698376,1.08491e-05,-1.10834,4.1229e-06,2.21564,-2.08994e-05,0.611847,2.2633e-05,0.00029897,-0.00135539,0.000113707,-0.025707,-0.000575191,0.0270624,0.000622876,0,0,0,-0.00406494,0,0.00709671,0,0,0,0.070103,-0.0246,0.588314,0,0,0,0,0,0
0.071137,1.12448e-05,-1.10834,4.27339e-06,2.2156,-2.16606e-05,0.611883,2.34573e-05,0.000304503,-0.00137701,0.000115817,-0.0261862,-0.000585788,0.0275632,0.000634349,0,0,0,-0.00413975,0,0.00722922,0,0,0,0.0700976,-0.0246,0.588323,0,0,0,0,0,0
0.0723322,1.16148e-05,-1.10834,4.41413e-06,2.21557,-2.23723e-05,0.611917,2.42281e-05,0.000309584,-0.00139584,0.000117757,-0.0266272,-0.000595506,0.0280231,0.00064487,0,0,0,-0.00420832,0,0.00735125,0,0,0,0.0700926,-0.0246,0.588332,0,0,0,0,0,0
0.0735674,1.20037e-05,-1.10834,4.56206e-06,2.21554,-2.31203e-05,0.611952,2.5038e-05,0.000314838,-0.00141557,0.000119762,-0.0270829,-0.000605556,0.0284985,0.000655751,0,0,0,-0.00427925,0,0.00747732,0,0,0,0.0700873,-0.0246,0.588341,0,0,0,0,0,0
0.0747943,1.23964e-05,-1.10834,4.71144e-06,2.2155,-2.38755e-05,0.611987,2.58558e-05,0.000320053,-0.0014348,0.000121753,-0.0275357,-0.000615528,0.0289705,0.000666547,0,0,0,-0.00434961,0,0.00760259,0,0,0,0.070082,-0.0246,0.58835,0,0,0,0,0,0
0.076011,1.27921e-05,-1.10834,4.86198e-06,2.21547,-2.46364e-05,0.612023,2.66798e-05,0.000325222,-0.00145365,0.000123727,-0.0279847,-0.00062541,0.0294384,0.000677246,0,0,0,-0.00441934,0,0.00772686,0,0,0,0.0700766,-0.0246,0.58836,0,0,0,0,0,0
0.0771856,1.31799e-05,-1.10835,5.00955e-06,2.21544,-2.53822e-05,0.612058,2.74874e-05,0.000330211,-0.00147151,0.000125633,-0.0284183,-0.000634941,0.0298898,0.000687565,0,0,0,-0.00448657,0,0.00784686,0,0,0,0.0700713,-0.0246,0.588369,0,0,0,0,0,0
0.0783713,1.35774e-05,-1.10835,5.16079e-06,2.2154,-2.61465e-05,0.612094,2.8315e-05,0.000335246,-0.00148954,0.000127556,-0.0288559,-0.000644562,0.0303455,0.000697981,0,0,0,-0.00455445,0,0.007968,0,0,0,0.0700659,-0.0246,0.588378,0,0,0,0,0,0
0.0795379,1.39743e-05,-1.10835,5.31181e-06,2.21537,-2.69094e-05,0.61213,2.91412e-05,0.000340197,-0.00150695,0.000129448,-0.0292866,-0.000654019,0.0307936,0.000708218,0,0,0,-0.00462115,0,0.00808723,0,0,0,0.0700605,-0.0246,0.588388,0,0,0,0,0,0
0.0807094,1.43787e-05,-1.10835,5.46568e-06,2.21533,-2.76868e-05,0.612167,2.9983e-05,0.000345169,-0.00152432,0.000131347,-0.0297192,-0.000663511,0.0312435,0.000718495,0,0,0,-0.00468811,0,0.00820698,0,0,0,0.070055,-0.0246,0.588397,0,0,0,0,0,0
0.0820293,1.48417e-05,-1.10835,5.64187e-06,2.21529,-2.85767e-05,0.612209,3.09466e-05,0.000350772,-0.00154425,0.000133488,-0.0302064,-0.000674217,0.0317506,0.000730085,0,0,0,-0.00476363,0,0.00834185,0,0,0,0.0700487,-0.0246,0.588408,0,0,0,0,0,0
0.0830294,1.51967e-05,-1.10835,5.77699e-06,2.21526,-2.9259e-05,0.612241,3.16855e-05,0.000355002,-0.00155728,0.000135107,-0.0305761,-0.000682269,0.0321334,0.000738801,0,0,0,-0.00482038,0,0.00844431,0,0,0,0.0700439,-0.0246,0.588417,0,0,0,0,0,0
0.08403,1.55562e-05,-1.10836,5.9138e-06,2.21523,-2.99498e-05,0.612273,3.24335e-05,0.000359243,-0.00157155,0.000136729,-0.0309456,-0.000690361,0.0325172,0.00074756,0,0,0,-0.00487744,0,0.00854667,0,0,0,0.070039,-0.0246,0.588425,0,0,0,0,0,0
0.0852475,1.59998e-05,-1.10836,6.08267e-06,2.21519,-3.08023e-05,0.612314,3.33566e-05,0.00036441,-0.0015897,0.000138703,-0.0313951,-0.000700229,0.0329848,0.000758244,0,0,0,-0.00494705,0,0.0086711,0,0,0,0.070033,-0.0246,0.588436,0,0,0,0,0,0
0.0864297,1.64366e-05,-1.10836,6.24891e-06,2.21516,-3.16414e-05,0.612353,3.42653e-05,0.000369416,-0.00160596,0.000140618,-0.0318319,-0.000709772,0.0334379,0.000768574,0,0,0,-0.00501432,0,0.00879211,0,0,0,0.0700271,-0.0246,0.588446,0,0,0,0,0,0
0.0874299,1.68103e-05,-1.10836,6.39118e-06,2.21512,-3.23593e-05,0.612387,3.50427e-05,0.000373644,-0.00161879,0.000142237,-0.0322017,-0.000717818,0.0338205,0.000777284,0,0,0,-0.00507103,0,0.00889461,0,0,0,0.070022,-0.0246,0.588455,0,0,0,0,0,0
0.0884302,1.71883e-05,-1.10836,6.53508e-06,2.21509,-3.30854e-05,0.612421,3.58289e-05,0.000377878,-0.00163232,0.000143857,-0.0325713,-0.000725886,0.0342036,0.000786017,0,0,0,-0.0051279,0,0.00899703,0,0,0,0.0700169,-0.0246,0.588464,0,0,0,0,0,0
0.0902558,1.78923e-05,-1.10837,6.80311e-06,2.21503,-3.44377e-05,0.612485,3.72932e-05,0.000385637,-0.00166087,0.000146819,-0.033245,-0.000740722,0.0349059,0.000802079,0,0,0,-0.00523259,0,0.00918344,0,0,0,0.0700073,-0.0246,0.588481,0,0,0,0,0,0
0.0915123,1.83835e-05,-1.10837,6.99014e-06,2.21499,-3.5381e-05,0.612529,3.83147e-05,0.000390926,-0.0016743,0.000148849,-0.0337101,-0.000750752,0.0353844,0.000812935,0,0,0,-0.00530321,0,0.00931255,0,0,0,0.0700007,-0.0246,0.588493,0,0,0,0,0,0
0.0925124,1.87787e-05,-1.10837,7.14062e-06,2.21495,-3.61399e-05,0.612565,3.91364e-05,0.000395142,-0.00168574,0.000150465,-0.0340802,-0.000758758,0.035766,0.0008216,0,0,0,-0.00535959,0,0.00941522,0,0,0,0.0699953,-0.0246,0.588502,0,0,0,0,0,0
0.0935125,1.91781e-05,-1.10837,7.29272e-06,2.21492,-3.69067e-05,0.612601,3.99667e-05,0.000399368,-0.00169839,0.000152084,-0.03445,-0.000766798,0.0361484,0.000830303,0,0,0,-0.00541625,0,0.00951774,0,0,0,0.0699899,-0.0246,0.588512,0,0,0,0,0,0
0.0945126,1.95817e-05,-1.10837,7.44643e-06,2.21488,-3.76817e-05,0.612638,4.08058e-05,0.000403592,-0.00171085,0.000153702,-0.0348198,-0.000774833,0.0365306,0.000839,0,0,0,-0.00547286,0,0.00962027,0,0,0,0.0699844,-0.0246,0.588521,0,0,0,0,0,0
0.0955127,1.99896e-05,-1.10838,7.60177e-06,2.21485,-3.84646e-05,0.612675,4.16536e-05,0.000407814,-0.00172313,0.000155319,-0.0351896,-0.000782863,0.0369128,0.000847691,0,0,0,-0.00552944,0,0.00972283,0,0,0,0.0699789,-0.0246,0.588531,0,0,0,0,0,0
0.0965237,2.04062e-05,-1.10838,7.76045e-06,2.21481,-3.92643e-05,0.612712,4.25195e-05,0.000412082,-0.00173542,0.000156954,-0.0355635,-0.000790977,0.037299,0.000856474,0,0,0,-0.0055866,0,0.00982652,0,0,0,0.0699732,-0.0246,0.588541,0,0,0,0,0,0
0.0976715,2.08847e-05,-1.10838,7.94273e-06,2.21477,-4.01827e-05,0.612756,4.3514e-05,0.000416931,-0.00174991,0.000158811,-0.0359879,-0.000800204,0.0377379,0.000866461,0,0,0,-0.00565162,0,0.00994418,0,0,0,0.0699668,-0.0246,0.588552,0,0,0,0,0,0
0.0986717,2.1306e-05,-1.10838,8.10319e-06,2.21474,-4.09911e-05,0.612794,4.43893e-05,0.000421142,-0.0017607,0.000160427,-0.0363582,-0.000808191,0.0381189,0.000875106,0,0,0,-0.00570786,0,0.0100469,0,0,0,0.069961,-0.0246,0.588562,0,0,0,0,0,0
0.0996719,2.17314e-05,-1.10838,8.26527e-06,2.2147,-4.18075e-05,0.612832,4.52733e-05,0.000425358,-0.00177221,0.000162044,-0.0367283,-0.000816199,0.0385005,0.000883773,0,0,0,-0.00576425,0,0.0101496,0,0,0,0.0699553,-0.0246,0.588573,0,0,0,0,0,0
0.100778,2.22071e-05,-1.10838,8.4465e-06,2.21466,-4.27201e-05,0.612875,4.62615e-05,0.000430026,-0.0017854,0.000163832,-0.0371374,-0.000825069,0.0389229,0.000893374,0,0,0,-0.00582674,0,0.0102631,0,0,0,0.0699488,-0.0246,0.588584,0,0,0,0,0,0
0.101886,2.26887e-05,-1.10839,8.62999e-06,2.21462,-4.36441e-05,0.612919,4.72619e-05,0.000434692,-0.0017977,0.000165622,-0.0375475,-0.000833926,0.0393452,0.00090296,0,0,0,-0.00588911,0,0.0103769,0,0,0,0.0699423,-0.0246,0.588595,0,0,0,0,0,0
0.10299,2.31736e-05,-1.10839,8.81477e-06,2.21457,-4.45743e-05,0.612963,4.82691e-05,0.00043934,-0.00180969,0.000167405,-0.037956,-0.000842743,0.0397658,0.000912502,0,0,0,-0.00595119,0,0.0104903,0,0,0,0.0699357,-0.0246,0.588607,0,0,0,0,0,0
0.104018,2.36298e-05,-1.10839,8.98861e-06,2.21454,-4.54492e-05,0.613004,4.92165e-05,0.000443663,-0.00182013,0.000169065,-0.0383368,-0.000850935,0.040157,0.000921367,0,0,0,-0.00600885,0,0.010596,0,0,0,0.0699296,-0.0246,0.588618,0,0,0,0,0,0
0.105177,2.41495e-05,-1.10839,9.18667e-06,2.21449,-4.64459e-05,0.613051,5.02957e-05,0.000448545,-0.00183316,0.000170937,-0.0387656,-0.000860202,0.0405988,0.000931398,0,0,0,-0.00607411,0,0.010715,0,0,0,0.0699225,-0.0246,0.58863,0,0,0,0,0,0
0.106325,2.46699e-05,-1.10839,9.385e-06,2.21445,-4.74438e-05,0.613098,5.13761e-05,0.00045337,-0.00184481,0.000172789,-0.0391907,-0.000869347,0.0410355,0.000941295,0,0,0,-0.00613848,0,0.010833,0,0,0,0.0699155,-0.0246,0.588643,0,0,0,0,0,0
0.107443,2.51821e-05,-1.1084,9.58023e-06,2.2144,-4.84258e-05,0.613145,5.24394e-05,0.000458068,-0.00185576,0.000174593,-0.0396049,-0.000878244,0.0414606,0.000950923,0,0,0,-0.00620109,0,0.010948,0,0,0,0.0699085,-0.0246,0.588655,0,0,0,0,0,0
0.108554,2.56963e-05,-1.1084,9.77623e-06,2.21436,-4.94115e-05,0.613191,5.35067e-05,0.000462736,-0.00186655,0.000176386,-0.0400165,-0.000887082,0.0418831,0.000960488,0,0,0,-0.00626329,0,0.0110624,0,0,0,0.0699016,-0.0246,0.588667,0,0,0,0,0,0
0.109666,2.62159e-05,-1.1084,9.97431e-06,2.21431,-5.04075e-05,0.613238,5.45851e-05,0.000467404,-0.00187714,0.000178179,-0.0404283,-0.000895919,0.0423055,0.000970051,0,0,0,-0.00632547,0,0.0111768,0,0,0,0.0698946,-0.0246,0.58868,0,0,0,0,0,0
0.110779,2.67417e-05,-1.1084,1.01747e-05,2.21427,-5.14152e-05,0.613286,5.56761e-05,0.000472078,-0.0018875,0.000179975,-0.040841,-0.000904764,0.0427285,0.000979623,0,0,0,-0.0063877,0,0.0112914,0,0,0,0.0698874,-0.0246,0.588692,0,0,0,0,0,0
0.11178,2.7218e-05,-1.1084,1.03564e-05,2.21423,-5.2328e-05,0.613329,5.66645e-05,0.000476266,-0.00189566,0.000181586,-0.0412118,-0.000912674,0.0431075,0.000988182,0,0,0,-0.00644333,0,0.0113945,0,0,0,0.069881,-0.0246,0.588704,0,0,0,0,0,0
0.11278,2.76986e-05,-1.10841,1.05396e-05,2.21418,-5.32488e-05,0.613372,5.76615e-05,0.00048046,-0.0019045,0.000183198,-0.0415826,-0.000920604,0.0434871,0.000996763,0,0,0,-0.00649911,0,0.0114975,0,0,0,0.0698745,-0.0246,0.588715,0,0,0,0,0,0
0.11378,2.81833e-05,-1.10841,1.07244e-05,2.21414,-5.41774e-05,0.613416,5.86669e-05,0.000484651,-0.00191311,0.00018481,-0.0419533,-0.000928527,0.0438664,0.00100534,0,0,0,-0.00655483,0,0.0116006,0,0,0,0.0698679,-0.0246,0.588727,0,0,0,0,0,0
0.11478,2.86722e-05,-1.10841,1.09109e-05,2.2141,-5.5114e-05,0.613461,5.96809e-05,0.000488841,-0.00192151,0.000186421,-0.042324,-0.000936443,0.0442456,0.0010139,0,0,0,-0.00661051,0,0.0117036,0,0,0,0.0698613,-0.0246,0.588739,0,0,0,0,0,0
0.11578,2.91653e-05,-1.10841,1.10989e-05,2.21406,-5.60584e-05,0.613505,6.07035e-05,0.000493029,-0.00192969,0.000188032,-0.0426949,-0.000944353,0.0446246,0.00102246,0,0,0,-0.00666613,0,0.0118067,0,0,0,0.0698547,-0.0246,0.58875,0,0,0,0,0,0
0.11678,2.96625e-05,-1.10841,1.12886e-05,2.21401,-5.70108e-05,0.61355,6.17346e-05,0.000497214,-0.00193764,0.000189642,-0.0430657,-0.000952257,0.0450034,0.00103101,0,0,0,-0.0067217,0,0.0119098,0,0,0,0.0698479,-0.0246,0.588762,0,0,0,0,0,0
0.11778,3.0164e-05,-1.10842,1.14799e-05,2.21397,-5.7971e-05,0.613596,6.27742e-05,0.000501398,-0.00194537,0.000191252,-0.0434367,-0.000960154,0.0453821,0.00103956,0,0,0,-0.00677722,0,0.012013,0,0,0,0.0698412,-0.0246,0.588774,0,0,0,0,0,0
0.118781,3.06697e-05,-1.10842,1.16728e-05,2.21393,-5.89394e-05,0.613641,6.38227e-05,0.000505581,-0.00195288,0.000192862,-0.0438077,-0.000968045,0.0457606,0.0010481,0,0,0,-0.0068327,0,0.0121162,0,0,0,0.0698343,-0.0246,0.588786,0,0,0,0,0,0
0.119896,3.12389e-05,-1.10842,1.18899e-05,2.21388,-6.0029e-05,0.613693,6.50024e-05,0.000510252,-0.00196204,0.000194659,-0.0442213,-0.000976868,0.0461834,0.00105764,0,0,0,-0.00689475,0,0.0122312,0,0,0,0.0698266,-0.0246,0.5888,0,0,0,0,0,0
0.120896,3.17533e-05,-1.10842,1.20862e-05,2.21383,-6.10138e-05,0.613739,6.60686e-05,0.000514421,-0.00196799,0.000196266,-0.0445926,-0.000984713,0.0465607,0.00106613,0,0,0,-0.00694985,0,0.0123345,0,0,0,0.0698197,-0.0246,0.588812,0,0,0,0,0,0
0.121896,3.2272e-05,-1.10842,1.22841e-05,2.21379,-6.20064e-05,0.613786,6.71433e-05,0.000518596,-0.00197478,0.000197874,-0.0449638,-0.000992583,0.0469386,0.00107465,0,0,0,-0.00700515,0,0.0124378,0,0,0,0.0698127,-0.0246,0.588825,0,0,0,0,0,0
0.122896,3.27948e-05,-1.10843,1.24836e-05,2.21374,-6.3007e-05,0.613834,6.82266e-05,0.00052277,-0.00198133,0.000199482,-0.045335,-0.00100044,0.0473164,0.00108315,0,0,0,-0.0070604,0,0.0125411,0,0,0,0.0698056,-0.0246,0.588837,0,0,0,0,0,0
0.124018,3.33866e-05,-1.10843,1.27094e-05,2.21369,-6.41394e-05,0.613887,6.94526e-05,0.00052746,-0.0019896,0.000201288,-0.0457512,-0.00100929,0.0477409,0.00109273,0,0,0,-0.00712259,0,0.0126569,0,0,0,0.0697976,-0.0246,0.588852,0,0,0,0,0,0
0.125275,3.40559e-05,-1.10843,1.29649e-05,2.21363,-6.54199e-05,0.613948,7.0839e-05,0.000532709,-0.00199853,0.000203309,-0.0462174,-0.00101919,0.048216,0.00110343,0,0,0,-0.00719215,0,0.0127866,0,0,0,0.0697886,-0.0246,0.588868,0,0,0,0,0,0
0.126412,3.46671e-05,-1.10843,1.31981e-05,2.21358,-6.6589e-05,0.614003,7.21047e-05,0.000537437,-0.00200387,0.000205134,-0.04664,-0.00102807,0.0486439,0.00111304,0,0,0,-0.00725448,0,0.0129043,0,0,0,0.0697803,-0.0246,0.588882,0,0,0,0,0,0
0.127412,3.52087e-05,-1.10844,1.34049e-05,2.21353,-6.7625e-05,0.614052,7.32263e-05,0.00054159,-0.00200793,0.000206737,-0.0470117,-0.00103586,0.0490197,0.00112146,0,0,0,-0.00730915,0,0.0130079,0,0,0,0.069773,-0.0246,0.588895,0,0,0,0,0,0
0.128412,3.57546e-05,-1.10844,1.36133e-05,2.21349,-6.86689e-05,0.614102,7.43565e-05,0.000545752,-0.00201316,0.000208343,-0.0473833,-0.00104368,0.0493965,0.00112993,0,0,0,-0.0073641,0,0.0131114,0,0,0,0.0697657,-0.0246,0.588908,0,0,0,0,0,0
0.129412,3.63045e-05,-1.10844,1.38233e-05,2.21344,-6.97205e-05,0.614151,7.5495e-05,0.000549912,-0.00201814,0.000209948,-0.0477549,-0.0010515,0.049773,0.00113838,0,0,0,-0.00741897,0,0.0132149,0,0,0,0.0697582,-0.0246,0.588922,0,0,0,0,0,0
0.130412,3.68588e-05,-1.10844,1.40349e-05,2.21339,-7.07801e-05,0.614202,7.66422e-05,0.000554071,-0.00202287,0.000211553,-0.0481266,-0.00105931,0.0501495,0.00114683,0,0,0,-0.00747381,0,0.0133185,0,0,0,0.0697508,-0.0246,0.588935,0,0,0,0,0,0
0.131967,3.77304e-05,-1.10844,1.43677e-05,2.21331,-7.24464e-05,0.61428,7.84461e-05,0.000560583,-0.0020359,0.000214057,-0.048703,-0.00107162,0.0507389,0.00116015,0,0,0,-0.00756035,0,0.0134787,0,0,0,0.069739,-0.0246,0.588956,0,0,0,0,0,0
0.133695,3.87114e-05,-1.10845,1.47423e-05,2.21323,-7.43213e-05,0.614369,8.04758e-05,0.000567774,-0.00204493,0.000216831,-0.0493448,-0.00108513,0.0513898,0.00117477,0,0,0,-0.00765526,0,0.0136575,0,0,0,0.0697258,-0.0246,0.588979,0,0,0,0,0,0
0.136085,4.0092e-05,-1.10845,1.52696e-05,2.21311,-7.69591e-05,0.614494,8.33316e-05,0.00057775,-0.00206128,0.000220673,-0.0502315,-0.00110394,0.0522928,0.00119512,0,0,0,-0.00778741,0,0.0139042,0,0,0,0.0697072,-0.0246,0.589013,0,0,0,0,0,0
0.137714,4.10439e-05,-1.10846,1.56333e-05,2.21303,-7.87775e-05,0.61458,8.53001e-05,0.000584423,-0.00205725,0.000223267,-0.0508395,-0.00111631,0.0528968,0.0012085,0,0,0,-0.00787398,0,0.0140743,0,0,0,0.0696943,-0.0246,0.589036,0,0,0,0,0,0
0.139174,4.19063e-05,-1.10846,1.59628e-05,2.21295,-8.04244e-05,0.614658,8.7083e-05,0.000590451,-0.00205902,0.000225602,-0.0513835,-0.00112757,0.0534425,0.00122067,0,0,0,-0.00795285,0,0.0142262,0,0,0,0.0696827,-0.0246,0.589056,0,0,0,0,0,0
0.140174,4.2501e-05,-1.10846,1.61901e-05,2.2129,-8.15598e-05,0.614712,8.83121e-05,0.000594538,-0.00205551,0.000227192,-0.051757,-0.00113514,0.0538126,0.00122885,0,0,0,-0.00800576,0,0.0143308,0,0,0,0.0696747,-0.0246,0.589071,0,0,0,0,0,0
0.141175,4.30998e-05,-1.10846,1.64189e-05,2.21285,-8.27029e-05,0.614766,8.95495e-05,0.000598672,-0.00205744,0.000228792,-0.0521294,-0.00114286,0.0541869,0.00123721,0,0,0,-0.00805994,0,0.0144347,0,0,0,0.0696667,-0.0246,0.589085,0,0,0,0,0,0
0.14219,4.37118e-05,-1.10847,1.66528e-05,2.21279,-8.38709e-05,0.614822,9.0814e-05,0.000602866,-0.00205932,0.000230415,-0.0525072,-0.0011507,0.0545666,0.00124569,0,0,0,-0.0081149,0,0.0145402,0,0,0,0.0696584,-0.0246,0.5891,0,0,0,0,0,0
0.14319,4.43188e-05,-1.10847,1.68848e-05,2.21274,-8.50295e-05,0.614877,9.20682e-05,0.000606993,-0.00206051,0.000232013,-0.0528796,-0.00115841,0.0549402,0.00125402,0,0,0,-0.00816889,0,0.0146442,0,0,0,0.0696502,-0.0246,0.589115,0,0,0,0,0,0
0.14419,4.493e-05,-1.10847,1.71185e-05,2.21269,-8.61957e-05,0.614932,9.33307e-05,0.000611119,-0.00206162,0.000233611,-0.0532521,-0.00116611,0.0553138,0.00126235,0,0,0,-0.00822286,0,0.0147482,0,0,0,0.069642,-0.0246,0.589129,0,0,0,0,0,0
0.14519,4.55453e-05,-1.10847,1.73537e-05,2.21263,-8.73696e-05,0.614988,9.46015e-05,0.000615242,-0.00206246,0.000235208,-0.0536246,-0.00117381,0.0556871,0.00127067,0,0,0,-0.00827677,0,0.0148522,0,0,0,0.0696337,-0.0246,0.589144,0,0,0,0,0,0
0.14619,4.61648e-05,-1.10847,1.75906e-05,2.21258,-8.85514e-05,0.615044,9.58807e-05,0.000619364,-0.00206302,0.000236805,-0.0539972,-0.00118149,0.0560603,0.00127898,0,0,0,-0.00833062,0,0.0149563,0,0,0,0.0696254,-0.0246,0.589159,0,0,0,0,0,0
0.147697,4.71073e-05,-1.10848,1.7951e-05,2.2125,-9.0349e-05,0.615129,9.78267e-05,0.000625627,-0.00207039,0.000239221,-0.0545569,-0.00119326,0.0566274,0.00129171,0,0,0,-0.00841325,0,0.0151122,0,0,0,0.0696127,-0.0246,0.589182,0,0,0,0,0,0
0.149279,4.81074e-05,-1.10848,1.83334e-05,2.21241,-9.2256e-05,0.61522,9.9891e-05,0.000632146,-0.00207124,0.000241747,-0.0551463,-0.00120542,0.0572176,0.00130486,0,0,0,-0.00849841,0,0.0152768,0,0,0,0.0695993,-0.0246,0.589206,0,0,0,0,0,0
0.150279,4.87436e-05,-1.10848,1.85767e-05,2.21235,-9.34689e-05,0.615277,0.000101204,0.000636185,-0.00206234,0.000243327,-0.0555211,-0.00121283,0.0575835,0.00131287,0,0,0,-0.00855006,0,0.0153821,0,0,0,0.0695907,-0.0246,0.589221,0,0,0,0,0,0
0.151279,4.93841e-05,-1.10848,1.88217e-05,2.2123,-9.46898e-05,0.615335,0.000102525,0.000640294,-0.00206145,0.000244922,-0.055894,-0.00122047,0.0579556,0.00132113,0,0,0,-0.00860358,0,0.0154864,0,0,0,0.0695821,-0.0246,0.589237,0,0,0,0,0,0
0.152279,5.00286e-05,-1.10849,1.90683e-05,2.21224,-9.59181e-05,0.615394,0.000103855,0.0006444,-0.00206027,0.000246515,-0.056267,-0.00122811,0.0583274,0.00132939,0,0,0,-0.00865702,0,0.0155907,0,0,0,0.0695735,-0.0246,0.589253,0,0,0,0,0,0
0.153317,5.07017e-05,-1.10849,1.93258e-05,2.21218,-9.72006e-05,0.615455,0.000105243,0.000648661,-0.00205931,0.000248168,-0.0566539,-0.00123604,0.0587133,0.00133796,0,0,0,-0.00871252,0,0.0156988,0,0,0,0.0695644,-0.0246,0.589269,0,0,0,0,0,0
0.154523,5.14902e-05,-1.10849,1.96275e-05,2.21211,-9.8703e-05,0.615526,0.00010687,0.000653629,-0.00205972,0.000250093,-0.0571034,-0.0012453,0.0591632,0.00134798,0,0,0,-0.0087774,0,0.0158244,0,0,0,0.0695538,-0.0246,0.589288,0,0,0,0,0,0
0.155525,5.2149e-05,-1.10849,1.98796e-05,2.21206,-9.99579e-05,0.615586,0.000108228,0.000657706,-0.00205445,0.000251682,-0.0574779,-0.00125283,0.0595324,0.00135611,0,0,0,-0.00882997,0,0.0159294,0,0,0,0.069545,-0.0246,0.589304,0,0,0,0,0,0
0.156525,5.28111e-05,-1.1085,2.0133e-05,2.212,-0.000101219,0.615645,0.000109593,0.000661801,-0.002052,0.000253273,-0.0578513,-0.00126043,0.0599033,0.00136433,0,0,0,-0.00888312,0,0.0160339,0,0,0,0.0695361,-0.0246,0.58932,0,0,0,0,0,0
0.157734,5.36168e-05,-1.1085,2.04414e-05,2.21193,-0.000102753,0.615718,0.000111254,0.000666772,-0.00205198,0.0002552,-0.0583015,-0.0012697,0.0603536,0.00137435,0,0,0,-0.008948,0,0.0161597,0,0,0,0.0695253,-0.0246,0.589339,0,0,0,0,0,0
0.158807,5.43374e-05,-1.1085,2.07172e-05,2.21187,-0.000104125,0.615784,0.000112739,0.000671143,-0.00204652,0.000256903,-0.0587029,-0.00127777,0.0607495,0.00138307,0,0,0,-0.00900439,0,0.0162722,0,0,0,0.0695156,-0.0246,0.589357,0,0,0,0,0,0
0.159808,5.50127e-05,-1.1085,2.09757e-05,2.21181,-0.000105411,0.615845,0.00011413,0.000675218,-0.00204191,0.00025849,-0.0590767,-0.00128531,0.0611187,0.00139122,0,0,0,-0.00905703,0,0.0163769,0,0,0,0.0695066,-0.0246,0.589373,0,0,0,0,0,0
0.160808,5.56921e-05,-1.1085,2.12358e-05,2.21175,-0.000106704,0.615906,0.00011553,0.0006793,-0.00203818,0.000260078,-0.0594502,-0.00129287,0.0614885,0.00139939,0,0,0,-0.00910987,0,0.0164816,0,0,0,0.0694975,-0.0246,0.58939,0,0,0,0,0,0
0.161983,5.64963e-05,-1.10851,2.15438e-05,2.21168,-0.000108234,0.615979,0.000117186,0.000684121,-0.00203636,0.000261949,-0.0598887,-0.00130183,0.0619251,0.00140908,0,0,0,-0.00917256,0,0.0166042,0,0,0,0.0694867,-0.0246,0.589409,0,0,0,0,0,0
0.163526,5.75617e-05,-1.10851,2.19517e-05,2.21158,-0.000110261,0.616075,0.00011938,0.000690464,-0.00203577,0.000264408,-0.0604638,-0.00131364,0.0624996,0.00142185,0,0,0,-0.00925528,0,0.0167649,0,0,0,0.0694724,-0.0246,0.589435,0,0,0,0,0,0
0.164631,5.83293e-05,-1.10851,2.22458e-05,2.21152,-0.000111721,0.616145,0.00012096,0.000694896,-0.0020229,0.000266146,-0.0608784,-0.00132174,0.0629014,0.0014306,0,0,0,-0.0093116,0,0.0168816,0,0,0,0.0694621,-0.0246,0.589454,0,0,0,0,0,0
0.167063,6.00441e-05,-1.10852,2.29026e-05,2.21137,-0.000114982,0.6163,0.00012449,0.000704993,-0.00203329,0.000270043,-0.0617823,-0.00134069,0.0638157,0.0014511,0,0,0,-0.00944463,0,0.0171335,0,0,0,0.0694391,-0.0246,0.589495,0,0,0,0,0,0
0.168476,6.1048e-05,-1.10852,2.32872e-05,2.21128,-0.00011689,0.616391,0.000126555,0.000710573,-0.0020067,0.000272247,-0.0623149,-0.00135075,0.0643217,0.00146195,0,0,0,-0.00951429,0,0.017284,0,0,0,0.0694257,-0.0246,0.58952,0,0,0,0,0,0
0.169929,6.20888e-05,-1.10852,2.3686e-05,2.21119,-0.000118868,0.616485,0.000128696,0.000716474,-0.00199808,0.000274547,-0.0628582,-0.00136163,0.0648563,0.00147371,0,0,0,-0.00959028,0,0.0174364,0,0,0,0.0694118,-0.0246,0.589545,0,0,0,0,0,0
0.174533,6.54762e-05,-1.10853,2.49843e-05,2.21089,-0.000125304,0.616792,0.000135662,0.000735647,-0.00202462,0.000281936,-0.0645678,-0.00139772,0.0665926,0.00151275,0,0,0,-0.00984371,0,0.0179124,0,0,0,0.0693664,-0.0246,0.589628,0,0,0,0,0,0
0.175534,6.62154e-05,-1.10853,2.52677e-05,2.21082,-0.000126708,0.616859,0.000137181,0.000739079,-0.0019465,0.000283388,-0.0649584,-0.0014031,0.066905,0.00151851,0,0,0,-0.0098792,0,0.0180266,0,0,0,0.0693565,-0.0246,0.589646,0,0,0,0,0,0
0.176534,6.69587e-05,-1.10854,2.55527e-05,2.21076,-0.000128119,0.616926,0.000138707,0.000743115,-0.00193772,0.000284965,-0.0653331,-0.00141051,0.0672709,0.00152651,0,0,0,-0.00993085,0,0.0181318,0,0,0,0.0693466,-0.0246,0.589664,0,0,0,0,0,0
0.177534,6.77059e-05,-1.10854,2.58393e-05,2.21069,-0.000129537,0.616994,0.000140242,0.000747148,-0.00192861,0.000286541,-0.0657078,-0.00141791,0.0676365,0.00153451,0,0,0,-0.00998241,0,0.0182371,0,0,0,0.0693366,-0.0246,0.589682,0,0,0,0,0,0
0.178851,6.86967e-05,-1.10854,2.62193e-05,2.21061,-0.000131416,0.617083,0.000142277,0.000752509,-0.00192256,0.000288628,-0.0661997,-0.00142783,0.0681224,0.00154523,0,0,0,-0.0100517,0,0.018375,0,0,0,0.0693234,-0.0246,0.589706,0,0,0,0,0,0
0.180002,6.95683e-05,-1.10854,2.65537e-05,2.21053,-0.00013307,0.617162,0.000144066,0.000757113,-0.0019078,0.000290434,-0.066632,-0.00143622,0.0685399,0.00155429,0,0,0,-0.01011,0,0.0184967,0,0,0,0.0693117,-0.0246,0.589728,0,0,0,0,0,0
0.181002,7.03294e-05,-1.10854,2.68457e-05,2.21046,-0.000134513,0.617231,0.000145628,0.000761107,-0.00189438,0.000292002,-0.0670077,-0.00144349,0.0689022,0.00156215,0,0,0,-0.0101606,0,0.0186026,0,0,0,0.0693016,-0.0246,0.589746,0,0,0,0,0,0
0.182002,7.10947e-05,-1.10855,2.71393e-05,2.21039,-0.000135965,0.617301,0.000147199,0.000765126,-0.00188374,0.000293575,-0.0673828,-0.00145085,0.0692667,0.00157009,0,0,0,-0.0102118,0,0.0187081,0,0,0,0.0692914,-0.0246,0.589765,0,0,0,0,0,0
0.183002,7.18639e-05,-1.10855,2.74345e-05,2.21033,-0.000137423,0.61737,0.000148777,0.000769141,-0.00187276,0.000295147,-0.0677579,-0.0014582,0.0696308,0.00157802,0,0,0,-0.0102629,0,0.0188136,0,0,0,0.0692811,-0.0246,0.589784,0,0,0,0,0,0
0.184002,7.26372e-05,-1.10855,2.77313e-05,2.21026,-0.000138889,0.61744,0.000150363,0.000773153,-0.00186142,0.000296719,-0.0681331,-0.00146553,0.0699947,0.00158595,0,0,0,-0.0103139,0,0.0189192,0,0,0,0.0692708,-0.0246,0.589803,0,0,0,0,0,0
0.185002,7.34144e-05,-1.10855,2.80296e-05,2.21019,-0.000140362,0.617511,0.000151957,0.000777161,-0.00184974,0.000298289,-0.0685083,-0.00147286,0.0703582,0.00159386,0,0,0,-0.0103649,0,0.0190248,0,0,0,0.0692604,-0.0246,0.589822,0,0,0,0,0,0
0.186011,7.42025e-05,-1.10855,2.83321e-05,2.21012,-0.000141855,0.617582,0.000153573,0.000781203,-0.0018378,0.000299873,-0.0688869,-0.00148024,0.0707249,0.00160183,0,0,0,-0.0104162,0,0.0191313,0,0,0,0.0692499,-0.0246,0.589841,0,0,0,0,0,0
0.187128,7.50799e-05,-1.10856,2.86689e-05,2.21004,-0.000143517,0.617661,0.000155371,0.000785692,-0.00182635,0.00030163,-0.0693056,-0.00148846,0.0711321,0.00161071,0,0,0,-0.0104735,0,0.019249,0,0,0,0.0692382,-0.0246,0.589862,0,0,0,0,0,0
0.188128,7.58697e-05,-1.10856,2.89722e-05,2.20997,-0.000145013,0.617733,0.00015699,0.000789667,-0.00181096,0.000303193,-0.0696817,-0.00149568,0.0714928,0.0016185,0,0,0,-0.0105236,0,0.0193551,0,0,0,0.0692277,-0.0246,0.589882,0,0,0,0,0,0
0.189279,7.67838e-05,-1.10856,2.93232e-05,2.20989,-0.000146744,0.617816,0.000158863,0.000794294,-0.00179924,0.000305003,-0.0701131,-0.00150416,0.0719125,0.00162766,0,0,0,-0.0105826,0,0.0194764,0,0,0,0.0692155,-0.0246,0.589904,0,0,0,0,0,0
0.190279,7.75821e-05,-1.10856,2.96298e-05,2.20982,-0.000148255,0.617888,0.000160499,0.000798254,-0.00178224,0.000306562,-0.0704895,-0.00151133,0.0722719,0.0016354,0,0,0,-0.0106323,0,0.0195827,0,0,0,0.0692049,-0.0246,0.589924,0,0,0,0,0,0
0.191279,7.83844e-05,-1.10856,2.99379e-05,2.20975,-0.000149774,0.61796,0.000162142,0.000802241,-0.00176832,0.000308128,-0.0708653,-0.00151858,0.0726338,0.00164323,0,0,0,-0.0106827,0,0.0196886,0,0,0,0.0691942,-0.0246,0.589944,0,0,0,0,0,0
0.192279,7.91908e-05,-1.10856,3.02477e-05,2.20968,-0.0001513,0.618033,0.000163794,0.000806226,-0.00175404,0.000309692,-0.0712411,-0.00152583,0.0729953,0.00165106,0,0,0,-0.010733,0,0.0197946,0,0,0,0.0691835,-0.0246,0.589963,0,0,0,0,0,0
0.193279,8.00011e-05,-1.10857,3.0559e-05,2.20961,-0.000152834,0.618107,0.000165453,0.000810206,-0.00173939,0.000311256,-0.071617,-0.00153307,0.0733566,0.00165887,0,0,0,-0.0107833,0,0.0199006,0,0,0,0.0691727,-0.0246,0.589983,0,0,0,0,0,0
0.195564,8.18733e-05,-1.10857,3.12783e-05,2.20944,-0.000156375,0.618276,0.000169285,0.000819565,-0.00173577,0.000314886,-0.0724689,-0.00155048,0.0742048,0.00167769,0,0,0,-0.010905,0,0.0201389,0,0,0,0.0691478,-0.0246,0.590029,0,0,0,0,0,0
0.197143,8.31773e-05,-1.10857,3.17794e-05,2.20933,-0.000158841,0.618394,0.000171953,0.000825679,-0.00169362,0.000317318,-0.0730667,-0.00156134,0.0747605,0.0016894,0,0,0,-0.0109799,0,0.0203086,0,0,0,0.0691304,-0.0246,0.590061,0,0,0,0,0,0
0.198732,8.44995e-05,-1.10858,3.22877e-05,2.20921,-0.000161341,0.618514,0.000174658,0.000831979,-0.00166777,0.000319796,-0.0736646,-0.00157276,0.0753325,0.00170173,0,0,0,-0.0110591,0,0.0204774,0,0,0,0.0691128,-0.0246,0.590094,0,0,0,0,0,0
0.199732,8.53354e-05,-1.10858,3.2609e-05,2.20914,-0.00016292,0.61859,0.000176367,0.000835803,-0.0016359,0.000321324,-0.0740443,-0.00157949,0.0756804,0.00170898,0,0,0,-0.0111053,0,0.0205855,0,0,0,0.0691017,-0.0246,0.590114,0,0,0,0,0,0
0.200732,8.61752e-05,-1.10858,3.29319e-05,2.20906,-0.000164507,0.618666,0.000178084,0.000839756,-0.00161847,0.000322881,-0.0744208,-0.00158665,0.0760394,0.0017167,0,0,0,-0.0111549,0,0.0206919,0,0,0,0.0690906,-0.0246,0.590135,0,0,0,0,0,0
0.201771,8.70515e-05,-1.10858,3.32689e-05,2.20898,-0.000166163,0.618745,0.000179875,0.000843866,-0.00160097,0.000324498,-0.0748115,-0.00159409,0.0764127,0.00172473,0,0,0,-0.0112065,0,0.0208022,0,0,0,0.0690789,-0.0246,0.590157,0,0,0,0,0,0
0.202973,8.80718e-05,-1.10858,3.36613e-05,2.20889,-0.00016809,0.618838,0.00018196,0.000848648,-0.00158335,0.000326376,-0.0752634,-0.00160279,0.0768469,0.00173412,0,0,0,-0.0112668,0,0.0209296,0,0,0,0.0690654,-0.0246,0.590182,0,0,0,0,0,0
0.203973,8.89244e-05,-1.10858,3.39892e-05,2.20882,-0.000169699,0.618915,0.000183701,0.000852541,-0.00155937,0.000327919,-0.0756413,-0.00160975,0.0772009,0.00174163,0,0,0,-0.0113149,0,0.0210367,0,0,0,0.0690541,-0.0246,0.590203,0,0,0,0,0,0
0.204974,8.97812e-05,-1.10859,3.43188e-05,2.20874,-0.000171317,0.618992,0.000185451,0.00085648,-0.00154032,0.000329472,-0.0760182,-0.00161685,0.0775587,0.00174929,0,0,0,-0.011364,0,0.0211433,0,0,0,0.0690427,-0.0246,0.590224,0,0,0,0,0,0
0.205995,9.066e-05,-1.10859,3.46569e-05,2.20866,-0.000172975,0.619072,0.000187246,0.000860502,-0.00152103,0.000331058,-0.0764029,-0.00162411,0.0779242,0.00175713,0,0,0,-0.0114143,0,0.0212521,0,0,0,0.069031,-0.0246,0.590246,0,0,0,0,0,0
0.207034,9.15587e-05,-1.10859,3.50027e-05,2.20858,-0.000174671,0.619153,0.00018908,0.000864591,-0.0015009,0.00033267,-0.0767946,-0.00163149,0.0782957,0.00176508,0,0,0,-0.0114653,0,0.0213628,0,0,0,0.0690191,-0.0246,0.590268,0,0,0,0,0,0
0.208034,9.24273e-05,-1.10859,3.5337e-05,2.20851,-0.00017631,0.619232,0.000190854,0.000868507,-0.00147958,0.000334218,-0.0771719,-0.00163853,0.0786517,0.00177268,0,0,0,-0.011514,0,0.0214696,0,0,0,0.0690076,-0.0246,0.590289,0,0,0,0,0,0
0.209146,9.33974e-05,-1.10859,3.57103e-05,2.20842,-0.00017814,0.61932,0.000192833,0.000872893,-0.00145972,0.000335945,-0.0775903,-0.00164646,0.0790503,0.00178124,0,0,0,-0.0115689,0,0.0215879,0,0,0,0.0689947,-0.0246,0.590313,0,0,0,0,0,0
0.210146,9.42744e-05,-1.10859,3.60479e-05,2.20834,-0.000179794,0.619399,0.000194622,0.000876783,-0.00143554,0.000337486,-0.0779683,-0.00165341,0.079404,0.00178873,0,0,0,-0.0116169,0,0.021695,0,0,0,0.0689831,-0.0246,0.590335,0,0,0,0,0,0
0.211146,9.51552e-05,-1.10859,3.6387e-05,2.20826,-0.000181454,0.619479,0.000196419,0.000880697,-0.00141407,0.000339033,-0.0783456,-0.00166045,0.0797599,0.00179632,0,0,0,-0.0116655,0,0.0218019,0,0,0,0.0689715,-0.0246,0.590357,0,0,0,0,0,0
0.212146,9.60399e-05,-1.1086,3.67276e-05,2.20819,-0.000183122,0.619559,0.000198223,0.000884607,-0.00139219,0.000340578,-0.078723,-0.00166747,0.0801154,0.00180389,0,0,0,-0.011714,0,0.0219088,0,0,0,0.0689597,-0.0246,0.590379,0,0,0,0,0,0
0.213146,9.69286e-05,-1.1086,3.70698e-05,2.20811,-0.000184797,0.61964,0.000200035,0.000888513,-0.00136991,0.000342123,-0.0791005,-0.00167448,0.0804707,0.00181145,0,0,0,-0.0117624,0,0.0220157,0,0,0,0.068948,-0.0246,0.590401,0,0,0,0,0,0
0.214147,9.78211e-05,-1.1086,3.74135e-05,2.20803,-0.000186478,0.619721,0.000201854,0.000892415,-0.00134723,0.000343666,-0.0794781,-0.00168147,0.0808255,0.00181899,0,0,0,-0.0118107,0,0.0221227,0,0,0,0.0689362,-0.0246,0.590423,0,0,0,0,0,0
0.215147,9.87175e-05,-1.1086,3.77587e-05,2.20795,-0.000188167,0.619802,0.000203681,0.000896312,-0.00132415,0.000345208,-0.0798557,-0.00168846,0.0811801,0.00182653,0,0,0,-0.0118589,0,0.0222297,0,0,0,0.0689243,-0.0246,0.590445,0,0,0,0,0,0
0.216147,9.96178e-05,-1.1086,3.81055e-05,2.20787,-0.000189863,0.619883,0.000205515,0.000900206,-0.00130066,0.000346749,-0.0802334,-0.00169543,0.0815343,0.00183404,0,0,0,-0.011907,0,0.0223368,0,0,0,0.0689124,-0.0246,0.590468,0,0,0,0,0,0
0.217171,0.000100544,-1.1086,3.84623e-05,2.20778,-0.000191607,0.619967,0.000207401,0.000904197,-0.0012769,0.000348328,-0.0806203,-0.00170258,0.0818974,0.00184175,0,0,0,-0.0119564,0,0.0224464,0,0,0,0.0689001,-0.0246,0.590491,0,0,0,0,0,0
0.218171,0.000101452,-1.1086,3.88122e-05,2.2077,-0.000193316,0.620049,0.000209251,0.000908076,-0.00125186,0.000349866,-0.0809983,-0.00170951,0.0822504,0.00184922,0,0,0,-0.0120041,0,0.0225537,0,0,0,0.0688881,-0.0246,0.590513,0,0,0,0,0,0
0.219171,0.000102364,-1.10861,3.91637e-05,2.20762,-0.000195033,0.620132,0.000211108,0.000911957,-0.00122713,0.000351404,-0.0813763,-0.00171644,0.0826037,0.0018567,0,0,0,-0.0120519,0,0.0226609,0,0,0,0.0688761,-0.0246,0.590536,0,0,0,0,0,0
0.220588,0.000103664,-1.10861,3.96646e-05,2.20751,-0.000197479,0.62025,0.000213754,0.000917567,-0.00120426,0.000353608,-0.081909,-0.00172662,0.0831135,0.00186768,0,0,0,-0.0121225,0,0.0228113,0,0,0,0.0688589,-0.0246,0.590568,0,0,0,0,0,0
0.221648,0.000104641,-1.10861,4.00412e-05,2.20742,-0.000199317,0.620338,0.000215742,0.000921569,-0.00116597,0.000355211,-0.0823123,-0.00173362,0.0834785,0.00187521,0,0,0,-0.0121703,0,0.0229264,0,0,0,0.068846,-0.0246,0.590592,0,0,0,0,0,0
0.222648,0.000105567,-1.10861,4.0398e-05,2.20734,-0.000201058,0.620422,0.000217625,0.000925418,-0.00113792,0.000356741,-0.082691,-0.00174045,0.0838291,0.00188258,0,0,0,-0.0122173,0,0.0230341,0,0,0,0.0688338,-0.0246,0.590615,0,0,0,0,0,0
0.223649,0.000106496,-1.10861,4.07563e-05,2.20725,-0.000202805,0.620506,0.000219515,0.000929281,-0.00111133,0.000358274,-0.0830693,-0.00174733,0.0841809,0.00188999,0,0,0,-0.0122647,0,0.0231416,0,0,0,0.0688215,-0.0246,0.590639,0,0,0,0,0,0
0.224662,0.000107442,-1.10861,4.11212e-05,2.20717,-0.000204584,0.620592,0.000221439,0.000933197,-0.00108438,0.000359828,-0.0834529,-0.00175431,0.0845375,0.00189751,0,0,0,-0.0123127,0,0.0232505,0,0,0,0.068809,-0.0246,0.590662,0,0,0,0,0,0
0.226103,0.000108795,-1.10861,4.16428e-05,2.20705,-0.000207126,0.620715,0.000224188,0.000938876,-0.00105855,0.000362063,-0.0839951,-0.00176459,0.0850539,0.0019086,0,0,0,-0.0123839,0,0.0234037,0,0,0,0.0687912,-0.0246,0.590696,0,0,0,0,0,0
0.227103,0.000109738,-1.10861,4.20064e-05,2.20696,-0.000208897,0.6208,0.000226104,0.000942591,-0.00101621,0.00036356,-0.0843768,-0.001771,0.0853933,0.00191549,0,0,0,-0.0124275,0,0.0235131,0,0,0,0.0687788,-0.0246,0.590719,0,0,0,0,0,0
0.228103,0.000110684,-1.10862,4.23715e-05,2.20688,-0.000210675,0.620886,0.000228027,0.000946434,-0.000987724,0.000365087,-0.0847555,-0.00177782,0.0857435,0.00192284,0,0,0,-0.0124743,0,0.0236208,0,0,0,0.0687663,-0.0246,0.590743,0,0,0,0,0,0
0.229103,0.000111635,-1.10862,4.27382e-05,2.20679,-0.00021246,0.620972,0.000229958,0.000950273,-0.000958814,0.000366614,-0.0851344,-0.00178463,0.0860935,0.00193018,0,0,0,-0.0125211,0,0.0237286,0,0,0,0.0687538,-0.0246,0.590767,0,0,0,0,0,0
0.230104,0.000112589,-1.10862,4.31064e-05,2.20671,-0.000214252,0.621058,0.000231896,0.000954108,-0.000929469,0.000368139,-0.0855133,-0.00179143,0.086443,0.0019375,0,0,0,-0.0125678,0,0.0238364,0,0,0,0.0687412,-0.0246,0.590791,0,0,0,0,0,0
0.231104,0.000113547,-1.10862,4.34761e-05,2.20662,-0.000216051,0.621145,0.000233841,0.000957938,-0.000899692,0.000369662,-0.0858923,-0.00179821,0.0867922,0.00194481,0,0,0,-0.0126144,0,0.0239442,0,0,0,0.0687286,-0.0246,0.590815,0,0,0,0,0,0
0.232165,0.000114568,-1.10862,4.387e-05,2.20653,-0.000217966,0.621238,0.000235912,0.000962017,-0.000869712,0.000371282,-0.086294,-0.00180545,0.087164,0.00195261,0,0,0,-0.0126642,0,0.0240584,0,0,0,0.0687151,-0.0246,0.59084,0,0,0,0,0,0
0.233165,0.000115534,-1.10862,4.42429e-05,2.20644,-0.000219779,0.621325,0.000237872,0.000965818,-0.000836955,0.000372799,-0.0866736,-0.00181215,0.0875108,0.00195982,0,0,0,-0.0127101,0,0.0241666,0,0,0,0.0687024,-0.0246,0.590864,0,0,0,0,0,0
0.234165,0.000116503,-1.10862,4.46173e-05,2.20636,-0.000221598,0.621413,0.00023984,0.000969635,-0.000805846,0.000374319,-0.0870528,-0.00181889,0.0878589,0.00196708,0,0,0,-0.0127563,0,0.0242747,0,0,0,0.0686897,-0.0246,0.590889,0,0,0,0,0,0
0.235165,0.000117477,-1.10862,4.49931e-05,2.20627,-0.000223424,0.621501,0.000241814,0.000973447,-0.000774294,0.000375838,-0.0874321,-0.00182562,0.0882067,0.00197433,0,0,0,-0.0128025,0,0.0243827,0,0,0,0.0686769,-0.0246,0.590913,0,0,0,0,0,0
0.236165,0.000118454,-1.10862,4.53705e-05,2.20618,-0.000225256,0.62159,0.000243796,0.000977254,-0.000742305,0.000377355,-0.0878115,-0.00183234,0.0885541,0.00198156,0,0,0,-0.0128485,0,0.0244908,0,0,0,0.068664,-0.0246,0.590937,0,0,0,0,0,0
0.237165,0.000119436,-1.10862,4.57494e-05,2.20609,-0.000227095,0.621679,0.000245785,0.000981057,-0.000709872,0.000378871,-0.088191,-0.00183904,0.0889012,0.00198878,0,0,0,-0.0128944,0,0.024599,0,0,0,0.0686511,-0.0246,0.590962,0,0,0,0,0,0
0.238166,0.00012042,-1.10862,4.61299e-05,2.206,-0.000228941,0.621768,0.000247781,0.000984855,-0.000676995,0.000380386,-0.0885705,-0.00184573,0.0892478,0.00199598,0,0,0,-0.0129402,0,0.0247072,0,0,0,0.0686382,-0.0246,0.590987,0,0,0,0,0,0
0.239166,0.000121409,-1.10862,4.65118e-05,2.20592,-0.000230794,0.621858,0.000249785,0.000988648,-0.000643671,0.000381899,-0.0889502,-0.00185241,0.0895942,0.00200317,0,0,0,-0.0129859,0,0.0248155,0,0,0,0.0686252,-0.0246,0.591012,0,0,0,0,0,0
0.240166,0.000122402,-1.10862,4.68953e-05,2.20583,-0.000232653,0.621947,0.000251795,0.000992437,-0.000609899,0.000383411,-0.0893299,-0.00185907,0.0899401,0.00201034,0,0,0,-0.0130315,0,0.0249238,0,0,0,0.0686121,-0.0246,0.591036,0,0,0,0,0,0
0.241166,0.000123398,-1.10863,4.72802e-05,2.20574,-0.000234519,0.622038,0.000253813,0.000996221,-0.000575677,0.000384922,-0.0897097,-0.00186572,0.0902857,0.0020175,0,0,0,-0.013077,0,0.0250322,0,0,0,0.0685991,-0.0246,0.591061,0,0,0,0,0,0
0.242166,0.000124398,-1.10863,4.76667e-05,2.20565,-0.000236392,0.622128,0.000255838,0.001,-0.000541003,0.000386432,-0.0900896,-0.00187235,0.090631,0.00202464,0,0,0,-0.0131224,0,0.0251406,0,0,0,0.0685859,-0.0246,0.591087,0,0,0,0,0,0
0.243166,0.000125402,-1.10863,4.80547e-05,2.20556,-0.000238271,0.622219,0.00025787,0.00100378,-0.000505876,0.00038794,-0.0904697,-0.00187898,0.0909759,0.00203177,0,0,0,-0.0131676,0,0.0252491,0,0,0,0.0685728,-0.0246,0.591112,0,0,0,0,0,0
0.244166,0.00012641,-1.10863,4.84442e-05,2.20547,-0.000240157,0.622311,0.000259909,0.00100755,-0.00047029,0.000389446,-0.0908497,-0.00188558,0.0913203,0.00203888,0,0,0,-0.0132128,0,0.0253576,0,0,0,0.0685595,-0.0246,0.591137,0,0,0,0,0,0
0.245166,0.000127421,-1.10863,4.88352e-05,2.20537,-0.000242049,0.622402,0.000261955,0.00101131,-0.000434251,0.000390952,-0.0912299,-0.00189218,0.0916645,0.00204597,0,0,0,-0.0132578,0,0.0254662,0,0,0,0.0685463,-0.0246,0.591163,0,0,0,0,0,0
0.246186,0.000128456,-1.10863,4.92352e-05,2.20528,-0.000243985,0.622496,0.000264048,0.00101515,-0.000397781,0.000392486,-0.0916172,-0.00189891,0.0920154,0.00205321,0,0,0,-0.0133038,0,0.0255769,0,0,0,0.0685327,-0.0246,0.591189,0,0,0,0,0,0
0.247186,0.000129475,-1.10863,4.96292e-05,2.20519,-0.00024589,0.622589,0.000266108,0.0010189,-0.000360085,0.000393987,-0.0919977,-0.00190545,0.0923582,0.00206025,0,0,0,-0.0133484,0,0.0256857,0,0,0,0.0685194,-0.0246,0.591214,0,0,0,0,0,0
0.248186,0.000130498,-1.10863,5.00248e-05,2.2051,-0.000247802,0.622681,0.000268176,0.00102265,-0.000322657,0.000395488,-0.0923782,-0.001912,0.0927012,0.0020673,0,0,0,-0.0133931,0,0.0257944,0,0,0,0.068506,-0.0246,0.59124,0,0,0,0,0,0
0.249186,0.000131524,-1.10863,5.04218e-05,2.205,-0.000249721,0.622774,0.000270251,0.00102639,-0.000284765,0.000396988,-0.0927587,-0.00191854,0.0930438,0.00207433,0,0,0,-0.0134377,0,0.0259033,0,0,0,0.0684925,-0.0246,0.591266,0,0,0,0,0,0
0.250186,0.000132555,-1.10863,5.08204e-05,2.20491,-0.000251647,0.622868,0.000272332,0.00103013,-0.000246403,0.000398486,-0.0931393,-0.00192507,0.0933861,0.00208135,0,0,0,-0.0134822,0,0.0260121,0,0,0,0.0684791,-0.0246,0.591292,0,0,0,0,0,0
0.251186,0.000133589,-1.10863,5.12204e-05,2.20482,-0.000253579,0.622961,0.000274421,0.00103387,-0.000207574,0.000399983,-0.09352,-0.00193158,0.0937279,0.00208835,0,0,0,-0.0135265,0,0.0261211,0,0,0,0.0684655,-0.0246,0.591318,0,0,0,0,0,0
0.252186,0.000134626,-1.10863,5.1622e-05,2.20472,-0.000255517,0.623056,0.000276517,0.0010376,-0.000168281,0.000401478,-0.0939008,-0.00193807,0.0940695,0.00209534,0,0,0,-0.0135707,0,0.0262301,0,0,0,0.0684519,-0.0246,0.591345,0,0,0,0,0,0
0.253527,0.000136024,-1.10863,5.21629e-05,2.2046,-0.000258127,0.623182,0.000279339,0.00104273,-0.000128681,0.000403513,-0.0944084,-0.00194717,0.0945375,0.00210513,0,0,0,-0.0136332,0,0.0263745,0,0,0,0.0684337,-0.0246,0.59138,0,0,0,0,0,0
0.254635,0.000137184,-1.10863,5.26118e-05,2.20449,-0.000260292,0.623287,0.000281679,0.00104676,-7.44963e-05,0.000405143,-0.0948325,-0.00195405,0.0949073,0.00211252,0,0,0,-0.0136796,0,0.0264966,0,0,0,0.0684185,-0.0246,0.591409,0,0,0,0,0,0
0.255635,0.000138235,-1.10863,5.30185e-05,2.2044,-0.000262253,0.623383,0.000283799,0.00105043,-2.91525e-05,0.000406623,-0.0952145,-0.00196036,0.095244,0.0021193,0,0,0,-0.0137224,0,0.0266063,0,0,0,0.0684048,-0.0246,0.591436,0,0,0,0,0,0
0.256747,0.000139407,-1.10863,5.34724e-05,2.20429,-0.00026444,0.623489,0.000286164,0.00105459,1.22567e-05,0.000408289,-0.0956372,-0.00196765,0.0956253,0.00212714,0,0,0,-0.0137721,0,0.0267272,0,0,0,0.0683895,-0.0246,0.591466,0,0,0,0,0,0
0.257747,0.000140465,-1.10863,5.38822e-05,2.20419,-0.000266415,0.623585,0.000288298,0.00105825,5.88343e-05,0.000409764,-0.0960194,-0.00197392,0.095961,0.00213388,0,0,0,-0.0138145,0,0.026837,0,0,0,0.0683757,-0.0246,0.591492,0,0,0,0,0,0
0.258747,0.000141527,-1.10863,5.42935e-05,2.2041,-0.000268395,0.623681,0.000290439,0.00106195,0.000101245,0.000411249,-0.0964008,-0.00198032,0.0962999,0.00214076,0,0,0,-0.013858,0,0.0269464,0,0,0,0.0683618,-0.0246,0.591519,0,0,0,0,0,0
0.259747,0.000142593,-1.10863,5.47063e-05,2.204,-0.000270382,0.623778,0.000292587,0.00106564,0.000144138,0.000412733,-0.0967822,-0.00198671,0.0966384,0.00214762,0,0,0,-0.0139013,0,0.0270558,0,0,0,0.0683479,-0.0246,0.591546,0,0,0,0,0,0
0.260747,0.000143663,-1.10863,5.51205e-05,2.2039,-0.000272375,0.623875,0.000294741,0.00106933,0.000187514,0.000414215,-0.0971637,-0.00199308,0.0969766,0.00215446,0,0,0,-0.0139445,0,0.0271653,0,0,0,0.0683339,-0.0246,0.591574,0,0,0,0,0,0
0.261747,0.000144736,-1.10863,5.55362e-05,2.20381,-0.000274375,0.623972,0.000296903,0.00107301,0.000231375,0.000415696,-0.0975453,-0.00199944,0.0973143,0.00216129,0,0,0,-0.0139876,0,0.0272748,0,0,0,0.06832,-0.0246,0.591601,0,0,0,0,0,0
0.262748,0.000145813,-1.10863,5.59535e-05,2.20371,-0.000276381,0.62407,0.000299071,0.00107668,0.000275723,0.000417175,-0.097927,-0.00200578,0.0976517,0.00216811,0,0,0,-0.0140306,0,0.0273844,0,0,0,0.0683059,-0.0246,0.591628,0,0,0,0,0,0
0.263748,0.000146893,-1.10863,5.63722e-05,2.20361,-0.000278393,0.624168,0.000301247,0.00108035,0.000320564,0.000418652,-0.0983088,-0.00201211,0.0979886,0.0021749,0,0,0,-0.0140734,0,0.027494,0,0,0,0.0682918,-0.0246,0.591656,0,0,0,0,0,0
0.264748,0.000147977,-1.10863,5.67924e-05,2.20351,-0.000280412,0.624266,0.000303428,0.00108402,0.00036589,0.000420128,-0.0986907,-0.00201842,0.0983252,0.00218168,0,0,0,-0.0141162,0,0.0276037,0,0,0,0.0682777,-0.0246,0.591683,0,0,0,0,0,0
0.265748,0.000149065,-1.10863,5.72141e-05,2.20341,-0.000282437,0.624365,0.000305617,0.00108768,0.000411708,0.000421602,-0.0990726,-0.00202472,0.0986614,0.00218844,0,0,0,-0.0141588,0,0.0277135,0,0,0,0.0682636,-0.0246,0.591711,0,0,0,0,0,0
0.266748,0.000150156,-1.10863,5.76372e-05,2.20331,-0.000284468,0.624464,0.000307813,0.00109133,0.000458023,0.000423075,-0.0994547,-0.002031,0.0989971,0.00219519,0,0,0,-0.0142013,0,0.0278233,0,0,0,0.0682494,-0.0246,0.591739,0,0,0,0,0,0
0.267748,0.000151252,-1.10863,5.80618e-05,2.20321,-0.000286506,0.624563,0.000310015,0.00109498,0.000504829,0.000424546,-0.0998368,-0.00203727,0.0993324,0.00220192,0,0,0,-0.0142436,0,0.0279332,0,0,0,0.0682351,-0.0246,0.591767,0,0,0,0,0,0
0.268748,0.000152351,-1.10863,5.84879e-05,2.20311,-0.00028855,0.624663,0.000312224,0.00109863,0.000552137,0.000426015,-0.100219,-0.00204352,0.0996674,0.00220863,0,0,0,-0.0142859,0,0.0280431,0,0,0,0.0682208,-0.0246,0.591795,0,0,0,0,0,0
0.269749,0.000153453,-1.10863,5.89155e-05,2.20301,-0.0002906,0.624763,0.00031444,0.00110227,0.000599943,0.000427483,-0.100601,-0.00204976,0.100002,0.00221533,0,0,0,-0.014328,0,0.0281531,0,0,0,0.0682065,-0.0246,0.591823,0,0,0,0,0,0
0.270749,0.000154559,-1.10862,5.93445e-05,2.20291,-0.000292656,0.624863,0.000316662,0.0011059,0.000648249,0.000428949,-0.100984,-0.00205598,0.100336,0.002222,0,0,0,-0.01437,0,0.0282632,0,0,0,0.0681921,-0.0246,0.591851,0,0,0,0,0,0
0.271749,0.000155669,-1.10862,5.9775e-05,2.20281,-0.000294719,0.624964,0.000318891,0.00110953,0.000697057,0.000430413,-0.101366,-0.00206218,0.10067,0.00222866,0,0,0,-0.0144118,0,0.0283733,0,0,0,0.0681777,-0.0246,0.59188,0,0,0,0,0,0
0.272749,0.000156782,-1.10862,6.02069e-05,2.20271,-0.000296787,0.625065,0.000321127,0.00111315,0.000746363,0.000431875,-0.101749,-0.00206837,0.101003,0.00223531,0,0,0,-0.0144535,0,0.0284834,0,0,0,0.0681632,-0.0246,0.591908,0,0,0,0,0,0
0.273749,0.000157899,-1.10862,6.06403e-05,2.20261,-0.000298862,0.625166,0.000323369,0.00111676,0.000796174,0.000433335,-0.102132,-0.00207455,0.101336,0.00224193,0,0,0,-0.0144951,0,0.0285936,0,0,0,0.0681487,-0.0246,0.591937,0,0,0,0,0,0
0.274749,0.00015902,-1.10862,6.10751e-05,2.2025,-0.000300943,0.625268,0.000325618,0.00112037,0.000846492,0.000434794,-0.102514,-0.00208071,0.101668,0.00224854,0,0,0,-0.0145366,0,0.0287039,0,0,0,0.0681342,-0.0246,0.591965,0,0,0,0,0,0
0.275749,0.000160144,-1.10862,6.15114e-05,2.2024,-0.00030303,0.62537,0.000327873,0.00112398,0.000897323,0.000436251,-0.102897,-0.00208685,0.102,0.00225513,0,0,0,-0.014578,0,0.0288143,0,0,0,0.0681196,-0.0246,0.591994,0,0,0,0,0,0
0.27675,0.000161271,-1.10862,6.19492e-05,2.2023,-0.000305124,0.625472,0.000330135,0.00112758,0.00094866,0.000437707,-0.10328,-0.00209298,0.102332,0.0022617,0,0,0,-0.0146192,0,0.0289247,0,0,0,0.068105,-0.0246,0.592023,0,0,0,0,0,0
0.27775,0.000162403,-1.10862,6.23884e-05,2.20219,-0.000307223,0.625575,0.000332404,0.00113117,0.00100051,0.00043916,-0.103663,-0.0020991,0.102663,0.00226826,0,0,0,-0.0146603,0,0.0290351,0,0,0,0.0680903,-0.0246,0.592052,0,0,0,0,0,0
0.27875,0.000163538,-1.10862,6.28291e-05,2.20209,-0.000309329,0.625678,0.000334679,0.00113476,0.00105287,0.000440612,-0.104046,-0.00210519,0.102994,0.0022748,0,0,0,-0.0147012,0,0.0291457,0,0,0,0.0680756,-0.0246,0.592081,0,0,0,0,0,0
0.27975,0.000164676,-1.10862,6.32712e-05,2.20198,-0.00031144,0.625781,0.00033696,0.00113834,0.00110575,0.000442062,-0.104429,-0.00211127,0.103324,0.00228132,0,0,0,-0.0147421,0,0.0292562,0,0,0,0.0680609,-0.0246,0.592111,0,0,0,0,0,0
0.28075,0.000165818,-1.10862,6.37147e-05,2.20188,-0.000313558,0.625885,0.000339249,0.00114192,0.00115914,0.00044351,-0.104813,-0.00211734,0.103654,0.00228782,0,0,0,-0.0147828,0,0.0293669,0,0,0,0.0680461,-0.0246,0.59214,0,0,0,0,0,0
0.28175,0.000166964,-1.10861,6.41597e-05,2.20177,-0.000315681,0.625989,0.000341543,0.00114549,0.00121305,0.000444956,-0.105196,-0.00212339,0.103983,0.0022943,0,0,0,-0.0148233,0,0.0294776,0,0,0,0.0680313,-0.0246,0.59217,0,0,0,0,0,0
0.28275,0.000168113,-1.10861,6.46062e-05,2.20167,-0.000317811,0.626093,0.000343844,0.00114905,0.00126748,0.0004464,-0.105579,-0.00212942,0.104312,0.00230077,0,0,0,-0.0148638,0,0.0295883,0,0,0,0.0680164,-0.0246,0.592199,0,0,0,0,0,0
0.283751,0.000169266,-1.10861,6.50542e-05,2.20156,-0.000319947,0.626198,0.000346152,0.00115261,0.00132244,0.000447843,-0.105963,-0.00213544,0.104641,0.00230722,0,0,0,-0.0149041,0,0.0296992,0,0,0,0.0680015,-0.0246,0.592229,0,0,0,0,0,0
0.284751,0.000170422,-1.10861,6.55035e-05,2.20146,-0.000322089,0.626303,0.000348466,0.00115616,0.00137792,0.000449284,-0.106347,-0.00214144,0.104969,0.00231365,0,0,0,-0.0149443,0,0.02981,0,0,0,0.0679866,-0.0246,0.592259,0,0,0,0,0,0
0.285751,0.000171582,-1.10861,6.59544e-05,2.20135,-0.000324237,0.626408,0.000350787,0.00115971,0.00143392,0.000450722,-0.10673,-0.00214743,0.105297,0.00232006,0,0,0,-0.0149843,0,0.029921,0,0,0,0.0679716,-0.0246,0.592289,0,0,0,0,0,0
0.286751,0.000172746,-1.10861,6.64066e-05,2.20124,-0.00032639,0.626514,0.000353114,0.00116325,0.00149045,0.000452159,-0.107114,-0.0021534,0.105624,0.00232646,0,0,0,-0.0150242,0,0.030032,0,0,0,0.0679565,-0.0246,0.592319,0,0,0,0,0,0
0.287969,0.000174168,-1.10861,6.69596e-05,2.20111,-0.000329023,0.626643,0.000355958,0.00116767,0.00154868,0.000453938,-0.10758,-0.00216099,0.106031,0.0023346,0,0,0,-0.0150754,0,0.0301659,0,0,0,0.0679382,-0.0246,0.592355,0,0,0,0,0,0
0.288969,0.000175339,-1.1086,6.7415e-05,2.201,-0.00033119,0.62675,0.000358299,0.00117108,0.00161773,0.000455339,-0.107966,-0.00216658,0.106349,0.00234057,0,0,0,-0.0151122,0,0.0302784,0,0,0,0.067923,-0.0246,0.592386,0,0,0,0,0,0
0.28997,0.000176514,-1.1086,6.78719e-05,2.2009,-0.000333363,0.626856,0.000360646,0.0011746,0.00167596,0.00045677,-0.10835,-0.0021725,0.106675,0.00234691,0,0,0,-0.0151517,0,0.0303896,0,0,0,0.0679079,-0.0246,0.592416,0,0,0,0,0,0
0.29097,0.000177692,-1.1086,6.83301e-05,2.20079,-0.000335541,0.626963,0.000362999,0.00117812,0.00173473,0.000458198,-0.108734,-0.0021784,0.107,0.00235323,0,0,0,-0.015191,0,0.0305009,0,0,0,0.0678927,-0.0246,0.592447,0,0,0,0,0,0
0.29197,0.000178874,-1.1086,6.87898e-05,2.20068,-0.000337726,0.627071,0.000365359,0.00118163,0.00179403,0.000459625,-0.109118,-0.00218428,0.107325,0.00235952,0,0,0,-0.0152302,0,0.0306122,0,0,0,0.0678775,-0.0246,0.592477,0,0,0,0,0,0
0.29297,0.00018006,-1.1086,6.92509e-05,2.20057,-0.000339917,0.627178,0.000367725,0.00118513,0.00185387,0.000461049,-0.109503,-0.00219015,0.107649,0.0023658,0,0,0,-0.0152693,0,0.0307236,0,0,0,0.0678622,-0.0246,0.592508,0,0,0,0,0,0
0.29397,0.000181248,-1.10859,6.97135e-05,2.20046,-0.000342113,0.627286,0.000370098,0.00118862,0.00191424,0.000462472,-0.109887,-0.002196,0.107973,0.00237206,0,0,0,-0.0153082,0,0.030835,0,0,0,0.0678469,-0.0246,0.592539,0,0,0,0,0,0
0.29497,0.000182441,-1.10859,7.01774e-05,2.20035,-0.000344315,0.627395,0.000372476,0.00119211,0.00197515,0.000463892,-0.110272,-0.00220184,0.108297,0.00237831,0,0,0,-0.015347,0,0.0309465,0,0,0,0.0678315,-0.0246,0.59257,0,0,0,0,0,0
0.29597,0.000183636,-1.10859,7.06428e-05,2.20024,-0.000346523,0.627503,0.000374861,0.0011956,0.0020366,0.00046531,-0.110656,-0.00220765,0.10862,0.00238453,0,0,0,-0.0153857,0,0.0310581,0,0,0,0.0678161,-0.0246,0.592601,0,0,0,0,0,0
0.296971,0.000184835,-1.10859,7.11095e-05,2.20013,-0.000348736,0.627612,0.000377252,0.00119907,0.00209859,0.000466727,-0.111041,-0.00221345,0.108943,0.00239073,0,0,0,-0.0154242,0,0.0311697,0,0,0,0.0678007,-0.0246,0.592632,0,0,0,0,0,0
0.297971,0.000186038,-1.10859,7.15777e-05,2.20001,-0.000350956,0.627721,0.000379649,0.00120254,0.00216113,0.000468141,-0.111426,-0.00221924,0.109265,0.00239692,0,0,0,-0.0154625,0,0.0312814,0,0,0,0.0677852,-0.0246,0.592663,0,0,0,0,0,0
0.298971,0.000187244,-1.10858,7.20474e-05,2.1999,-0.000353181,0.627831,0.000382053,0.00120601,0.00222422,0.000469553,-0.111811,-0.00222501,0.109587,0.00240309,0,0,0,-0.0155008,0,0.0313931,0,0,0,0.0677697,-0.0246,0.592695,0,0,0,0,0,0
0.299971,0.000188454,-1.10858,7.25184e-05,2.19979,-0.000355412,0.627941,0.000384462,0.00120947,0.00228785,0.000470963,-0.112195,-0.00223076,0.109908,0.00240923,0,0,0,-0.0155389,0,0.031505,0,0,0,0.0677542,-0.0246,0.592726,0,0,0,0,0,0
0.300971,0.000189667,-1.10858,7.29908e-05,2.19968,-0.000357649,0.628051,0.000386878,0.00121292,0.00235204,0.000472371,-0.112581,-0.00223649,0.110229,0.00241536,0,0,0,-0.0155768,0,0.0316168,0,0,0,0.0677386,-0.0246,0.592758,0,0,0,0,0,0
0.301971,0.000190884,-1.10858,7.34647e-05,2.19956,-0.000359892,0.628162,0.0003893,0.00121636,0.00241677,0.000473777,-0.112966,-0.00224221,0.110549,0.00242147,0,0,0,-0.0156146,0,0.0317288,0,0,0,0.067723,-0.0246,0.592789,0,0,0,0,0,0
0.303165,0.00019234,-1.10857,7.40322e-05,2.19943,-0.000362576,0.628294,0.000392199,0.00122058,0.00248364,0.000475484,-0.113423,-0.00224934,0.11094,0.00242911,0,0,0,-0.0156623,0,0.0318611,0,0,0,0.0677043,-0.0246,0.592827,0,0,0,0,0,0
0.304226,0.000193639,-1.10857,7.45382e-05,2.19931,-0.000364969,0.628412,0.000394783,0.00122414,0.00256121,0.000476948,-0.113833,-0.00225514,0.111273,0.00243529,0,0,0,-0.0157002,0,0.0319809,0,0,0,0.0676876,-0.0246,0.592861,0,0,0,0,0,0
0.305226,0.000194867,-1.10857,7.50166e-05,2.19919,-0.00036723,0.628524,0.000397224,0.00122753,0.00263126,0.000478337,-0.11422,-0.00226069,0.111589,0.00244122,0,0,0,-0.0157367,0,0.0320935,0,0,0,0.0676719,-0.0246,0.592893,0,0,0,0,0,0
0.306226,0.000196098,-1.10857,7.54965e-05,2.19908,-0.000369497,0.628636,0.000399672,0.00123095,0.00269836,0.000479733,-0.114605,-0.00226633,0.111907,0.00244725,0,0,0,-0.0157739,0,0.0322057,0,0,0,0.0676561,-0.0246,0.592926,0,0,0,0,0,0
0.307226,0.000197333,-1.10856,7.59776e-05,2.19896,-0.000371769,0.628748,0.000402126,0.00123436,0.00276601,0.000481128,-0.114991,-0.00227196,0.112225,0.00245325,0,0,0,-0.0158109,0,0.0323179,0,0,0,0.0676403,-0.0246,0.592958,0,0,0,0,0,0
0.308226,0.000198571,-1.10856,7.64602e-05,2.19885,-0.000374047,0.628861,0.000404585,0.00123776,0.00283422,0.00048252,-0.115376,-0.00227757,0.112543,0.00245924,0,0,0,-0.0158478,0,0.0324303,0,0,0,0.0676245,-0.0246,0.59299,0,0,0,0,0,0
0.309227,0.000199812,-1.10856,7.69442e-05,2.19873,-0.00037633,0.628973,0.000407051,0.00124116,0.002903,0.000483909,-0.115762,-0.00228316,0.11286,0.00246521,0,0,0,-0.0158846,0,0.0325427,0,0,0,0.0676086,-0.0246,0.593023,0,0,0,0,0,0
0.310227,0.000201057,-1.10855,7.74296e-05,2.19862,-0.000378619,0.629087,0.000409522,0.00124455,0.00297234,0.000485297,-0.116148,-0.00228873,0.113176,0.00247116,0,0,0,-0.0159212,0,0.0326551,0,0,0,0.0675926,-0.0246,0.593056,0,0,0,0,0,0
0.311227,0.000202305,-1.10855,7.79163e-05,2.1985,-0.000380914,0.6292,0.000412,0.00124793,0.00304224,0.000486682,-0.116534,-0.00229429,0.113492,0.00247709,0,0,0,-0.0159577,0,0.0327676,0,0,0,0.0675767,-0.0246,0.593088,0,0,0,0,0,0
0.312227,0.000203556,-1.10855,7.84044e-05,2.19838,-0.000383214,0.629314,0.000414483,0.00125131,0.0031127,0.000488065,-0.11692,-0.00229983,0.113808,0.00248299,0,0,0,-0.015994,0,0.0328802,0,0,0,0.0675607,-0.0246,0.593121,0,0,0,0,0,0
0.313227,0.000204811,-1.10855,7.88939e-05,2.19827,-0.00038552,0.629428,0.000416972,0.00125468,0.00318374,0.000489445,-0.117306,-0.00230535,0.114123,0.00248888,0,0,0,-0.0160302,0,0.0329928,0,0,0,0.0675447,-0.0246,0.593154,0,0,0,0,0,0
0.314227,0.000206069,-1.10854,7.93848e-05,2.19815,-0.000387831,0.629543,0.000419467,0.00125804,0.00325534,0.000490824,-0.117692,-0.00231085,0.114437,0.00249475,0,0,0,-0.0160662,0,0.0331055,0,0,0,0.0675286,-0.0246,0.593187,0,0,0,0,0,0
0.315227,0.000207331,-1.10854,7.9877e-05,2.19803,-0.000390147,0.629657,0.000421968,0.0012614,0.00332752,0.0004922,-0.118078,-0.00231634,0.114751,0.0025006,0,0,0,-0.0161021,0,0.0332183,0,0,0,0.0675125,-0.0246,0.593221,0,0,0,0,0,0
0.316227,0.000208595,-1.10854,8.03706e-05,2.19791,-0.000392469,0.629772,0.000424475,0.00126475,0.00340026,0.000493573,-0.118465,-0.0023218,0.115065,0.00250643,0,0,0,-0.0161378,0,0.0333311,0,0,0,0.0674963,-0.0246,0.593254,0,0,0,0,0,0
0.317227,0.000209864,-1.10853,8.08657e-05,2.19779,-0.000394797,0.629888,0.000426987,0.00126809,0.00347359,0.000494944,-0.118851,-0.00232725,0.115378,0.00251224,0,0,0,-0.0161734,0,0.033444,0,0,0,0.0674802,-0.0246,0.593287,0,0,0,0,0,0
0.318228,0.000211135,-1.10853,8.1362e-05,2.19767,-0.00039713,0.630004,0.000429506,0.00127143,0.00354749,0.000496313,-0.119238,-0.00233269,0.115691,0.00251802,0,0,0,-0.0162088,0,0.033557,0,0,0,0.0674639,-0.0246,0.593321,0,0,0,0,0,0
0.319343,0.000212557,-1.10852,8.19172e-05,2.19754,-0.000399738,0.630133,0.000432321,0.00127522,0.00362327,0.000497859,-0.119667,-0.00233894,0.116045,0.0025247,0,0,0,-0.0162499,0,0.0336821,0,0,0,0.0674458,-0.0246,0.593359,0,0,0,0,0,0
0.320947,0.000214613,-1.10852,8.27198e-05,2.19735,-0.000403507,0.63032,0.000436389,0.00128087,0.00371268,0.000500142,-0.120282,-0.00234854,0.11657,0.00253498,0,0,0,-0.016314,0,0.0338599,0,0,0,0.0674196,-0.0246,0.593413,0,0,0,0,0,0
0.322006,0.000215973,-1.10851,8.32509e-05,2.19722,-0.000405999,0.630444,0.000439079,0.00128401,0.00382817,0.000501475,-0.120698,-0.00235316,0.116871,0.00253984,0,0,0,-0.0163423,0,0.0339839,0,0,0,0.0674023,-0.0246,0.593449,0,0,0,0,0,0
0.323007,0.00021726,-1.10851,8.37538e-05,2.1971,-0.000408358,0.630561,0.000441624,0.00128727,0.00390863,0.00050282,-0.121086,-0.00235839,0.117178,0.0025454,0,0,0,-0.016376,0,0.0340976,0,0,0,0.067386,-0.0246,0.593483,0,0,0,0,0,0
0.324007,0.000218551,-1.10851,8.4258e-05,2.19698,-0.000410722,0.630678,0.000444176,0.00129056,0.00398589,0.000504175,-0.121473,-0.00236372,0.117487,0.00255107,0,0,0,-0.0164106,0,0.034211,0,0,0,0.0673695,-0.0246,0.593517,0,0,0,0,0,0
0.325007,0.000219845,-1.1085,8.47636e-05,2.19686,-0.000413091,0.630796,0.000446733,0.00129385,0.00406373,0.000505527,-0.12186,-0.00236903,0.117797,0.00255672,0,0,0,-0.016445,0,0.0343244,0,0,0,0.0673531,-0.0246,0.593551,0,0,0,0,0,0
0.326007,0.000221142,-1.1085,8.52705e-05,2.19673,-0.000415466,0.630914,0.000449295,0.00129713,0.00414216,0.000506877,-0.122247,-0.00237432,0.118105,0.00256235,0,0,0,-0.0164792,0,0.0344378,0,0,0,0.0673366,-0.0246,0.593586,0,0,0,0,0,0
0.327007,0.000222443,-1.10849,8.57788e-05,2.19661,-0.000417845,0.631033,0.000451864,0.0013004,0.00422118,0.000508224,-0.122634,-0.00237959,0.118414,0.00256796,0,0,0,-0.0165133,0,0.0345513,0,0,0,0.0673201,-0.0246,0.59362,0,0,0,0,0,0
0.328007,0.000223746,-1.10849,8.62884e-05,2.19649,-0.000420231,0.631152,0.000454438,0.00130367,0.00430079,0.000509568,-0.123021,-0.00238484,0.118721,0.00257354,0,0,0,-0.0165473,0,0.0346649,0,0,0,0.0673035,-0.0246,0.593655,0,0,0,0,0,0
0.329007,0.000225054,-1.10849,8.67995e-05,2.19636,-0.000422621,0.631271,0.000457017,0.00130693,0.00438099,0.00051091,-0.123409,-0.00239008,0.119029,0.00257911,0,0,0,-0.016581,0,0.0347786,0,0,0,0.0672869,-0.0246,0.59369,0,0,0,0,0,0
0.330007,0.000226364,-1.10848,8.73118e-05,2.19624,-0.000425017,0.63139,0.000459602,0.00131018,0.00446179,0.000512249,-0.123796,-0.0023953,0.119335,0.00258465,0,0,0,-0.0166147,0,0.0348923,0,0,0,0.0672703,-0.0246,0.593725,0,0,0,0,0,0
0.331008,0.000227677,-1.10848,8.78254e-05,2.19612,-0.000427417,0.63151,0.000462192,0.00131342,0.00454318,0.000513586,-0.124184,-0.00240049,0.119642,0.00259018,0,0,0,-0.0166481,0,0.0350061,0,0,0,0.0672537,-0.0246,0.59376,0,0,0,0,0,0
0.332008,0.000228994,-1.10847,8.83404e-05,2.19599,-0.000429824,0.63163,0.000464789,0.00131665,0.00462516,0.00051492,-0.124572,-0.00240567,0.119947,0.00259568,0,0,0,-0.0166814,0,0.0351199,0,0,0,0.067237,-0.0246,0.593795,0,0,0,0,0,0
0.333008,0.000230314,-1.10847,8.88567e-05,2.19587,-0.000432235,0.63175,0.00046739,0.00131988,0.00470775,0.000516251,-0.124959,-0.00241084,0.120252,0.00260116,0,0,0,-0.0167146,0,0.0352338,0,0,0,0.0672203,-0.0246,0.59383,0,0,0,0,0,0
0.334008,0.000231638,-1.10846,8.93743e-05,2.19574,-0.000434651,0.63187,0.000469997,0.0013231,0.00479093,0.00051758,-0.125347,-0.00241598,0.120557,0.00260662,0,0,0,-0.0167476,0,0.0353478,0,0,0,0.0672035,-0.0246,0.593866,0,0,0,0,0,0
0.335008,0.000232964,-1.10846,8.98933e-05,2.19562,-0.000437072,0.631991,0.000472609,0.00132632,0.00487471,0.000518906,-0.125735,-0.0024211,0.120861,0.00261206,0,0,0,-0.0167804,0,0.0354618,0,0,0,0.0671867,-0.0246,0.593901,0,0,0,0,0,0
0.336009,0.000234295,-1.10845,9.04141e-05,2.19549,-0.000439501,0.632113,0.00047523,0.00132952,0.00495911,0.000520231,-0.126123,-0.00242621,0.121165,0.00261749,0,0,0,-0.0168132,0,0.035576,0,0,0,0.0671699,-0.0246,0.593937,0,0,0,0,0,0
0.337009,0.000235628,-1.10845,9.09357e-05,2.19536,-0.000441933,0.632234,0.000477853,0.00133272,0.00504417,0.000521551,-0.126512,-0.00243129,0.121468,0.00262288,0,0,0,-0.0168456,0,0.0356902,0,0,0,0.0671531,-0.0246,0.593972,0,0,0,0,0,0
0.338173,0.000237183,-1.10844,9.15444e-05,2.19521,-0.000444769,0.632376,0.000480912,0.00133656,0.00513225,0.000523122,-0.126961,-0.00243754,0.12183,0.00262952,0,0,0,-0.0168862,0,0.0358218,0,0,0,0.0671334,-0.0246,0.594014,0,0,0,0,0,0
0.339173,0.000238523,-1.10844,9.20688e-05,2.19509,-0.000447211,0.632498,0.000483547,0.00133961,0.00523011,0.000524399,-0.127351,-0.00244223,0.122122,0.00263448,0,0,0,-0.0169154,0,0.0359374,0,0,0,0.0671165,-0.0246,0.59405,0,0,0,0,0,0
0.340173,0.000239866,-1.10843,9.25946e-05,2.19496,-0.000449659,0.63262,0.000486187,0.00134279,0.00531702,0.000525711,-0.12774,-0.00244725,0.122423,0.00263981,0,0,0,-0.0169474,0,0.0360518,0,0,0,0.0670995,-0.0246,0.594086,0,0,0,0,0,0
0.341173,0.000241212,-1.10843,9.31217e-05,2.19483,-0.000452111,0.632743,0.000488833,0.00134595,0.00540454,0.00052702,-0.128128,-0.00245226,0.122724,0.00264511,0,0,0,-0.0169793,0,0.0361662,0,0,0,0.0670826,-0.0246,0.594122,0,0,0,0,0,0
0.342173,0.000242561,-1.10842,9.36501e-05,2.1947,-0.000454569,0.632866,0.000491484,0.00134911,0.00549268,0.000528327,-0.128517,-0.00245725,0.123025,0.0026504,0,0,0,-0.017011,0,0.0362808,0,0,0,0.0670655,-0.0246,0.594158,0,0,0,0,0,0
0.343173,0.000243914,-1.10841,9.41798e-05,2.19457,-0.000457032,0.63299,0.00049414,0.00135226,0.00558143,0.00052963,-0.128905,-0.00246221,0.123325,0.00265566,0,0,0,-0.0170425,0,0.0363953,0,0,0,0.0670485,-0.0246,0.594195,0,0,0,0,0,0
0.344174,0.000245269,-1.10841,9.47108e-05,2.19444,-0.000459499,0.633113,0.000496801,0.0013554,0.00567079,0.000530931,-0.129294,-0.00246716,0.123624,0.0026609,0,0,0,-0.0170738,0,0.03651,0,0,0,0.0670314,-0.0246,0.594231,0,0,0,0,0,0
0.345174,0.000246628,-1.1084,9.52431e-05,2.19432,-0.000461971,0.633237,0.000499467,0.00135854,0.00576076,0.000532229,-0.129682,-0.00247209,0.123923,0.00266612,0,0,0,-0.017105,0,0.0366247,0,0,0,0.0670143,-0.0246,0.594268,0,0,0,0,0,0
0.346174,0.00024799,-1.1084,9.57767e-05,2.19419,-0.000464449,0.633361,0.000502139,0.00136166,0.00585135,0.000533523,-0.130071,-0.002477,0.124221,0.00267131,0,0,0,-0.0171361,0,0.0367394,0,0,0,0.0669972,-0.0246,0.594305,0,0,0,0,0,0
0.347174,0.000249355,-1.10839,9.63116e-05,2.19405,-0.000466931,0.633486,0.000504816,0.00136478,0.00594256,0.000534816,-0.13046,-0.00248189,0.124518,0.00267649,0,0,0,-0.0171669,0,0.0368543,0,0,0,0.06698,-0.0246,0.594342,0,0,0,0,0,0
0.348174,0.000250723,-1.10838,9.68477e-05,2.19392,-0.000469418,0.633611,0.000507498,0.00136789,0.0060344,0.000536105,-0.130849,-0.00248676,0.124816,0.00268164,0,0,0,-0.0171976,0,0.0369692,0,0,0,0.0669628,-0.0246,0.594379,0,0,0,0,0,0
0.349174,0.000252094,-1.10838,9.73853e-05,2.19379,-0.00047191,0.633736,0.000510185,0.00137099,0.00612685,0.000537391,-0.131238,-0.00249161,0.125112,0.00268677,0,0,0,-0.0172281,0,0.0370842,0,0,0,0.0669456,-0.0246,0.594416,0,0,0,0,0,0
0.350188,0.000253487,-1.10837,9.79313e-05,2.19366,-0.000474441,0.633863,0.000512914,0.00137414,0.00622018,0.000538695,-0.131632,-0.00249654,0.125413,0.00269198,0,0,0,-0.0172592,0,0.0372006,0,0,0,0.0669281,-0.0246,0.594453,0,0,0,0,0,0
0.351188,0.000254864,-1.10837,9.84713e-05,2.19353,-0.000476942,0.633989,0.000515611,0.00137721,0.0063149,0.000539972,-0.132022,-0.00250132,0.125708,0.00269703,0,0,0,-0.0172891,0,0.0373158,0,0,0,0.0669108,-0.0246,0.594491,0,0,0,0,0,0
0.352188,0.000256245,-1.10836,9.90127e-05,2.19339,-0.000479449,0.634115,0.000518314,0.00138029,0.00640924,0.000541249,-0.132411,-0.00250611,0.126003,0.0027021,0,0,0,-0.0173191,0,0.037431,0,0,0,0.0668934,-0.0246,0.594528,0,0,0,0,0,0
0.353374,0.000257886,-1.10835,9.96562e-05,2.19324,-0.000482427,0.634265,0.000521525,0.00138409,0.00650762,0.000542808,-0.13287,-0.0025122,0.126363,0.00270856,0,0,0,-0.0173581,0,0.037566,0,0,0,0.0668729,-0.0246,0.594573,0,0,0,0,0,0
0.354502,0.000259451,-1.10834,0.00010027,2.19309,-0.000485267,0.634407,0.000524587,0.00138749,0.00661998,0.000544226,-0.13331,-0.00251742,0.126691,0.00271406,0,0,0,-0.0173904,0,0.0376966,0,0,0,0.0668532,-0.0246,0.594615,0,0,0,0,0,0
0.355502,0.000260842,-1.10834,0.000100816,2.19295,-0.000487789,0.634534,0.000527306,0.00139043,0.00672631,0.00054546,-0.133701,-0.00252184,0.126976,0.00271871,0,0,0,-0.0174174,0,0.0378131,0,0,0,0.0668358,-0.0246,0.594653,0,0,0,0,0,0
0.356502,0.000262235,-1.10833,0.000101362,2.19282,-0.000490316,0.634662,0.00053003,0.00139347,0.00682335,0.000546724,-0.134091,-0.00252654,0.127269,0.00272367,0,0,0,-0.0174467,0,0.0379285,0,0,0,0.0668184,-0.0246,0.594691,0,0,0,0,0,0
0.357502,0.000263632,-1.10832,0.000101911,2.19268,-0.000492848,0.634789,0.000532759,0.0013965,0.00692103,0.000547985,-0.134481,-0.00253123,0.127561,0.00272862,0,0,0,-0.0174758,0,0.038044,0,0,0,0.0668009,-0.0246,0.594729,0,0,0,0,0,0
0.358502,0.000265032,-1.10832,0.00010246,2.19255,-0.000495384,0.634917,0.000535492,0.00139953,0.00701935,0.000549242,-0.13487,-0.00253589,0.127852,0.00273354,0,0,0,-0.0175047,0,0.0381596,0,0,0,0.0667834,-0.0246,0.594767,0,0,0,0,0,0
0.359503,0.000266434,-1.10831,0.00010301,2.19241,-0.000497925,0.635045,0.000538231,0.00140255,0.0071183,0.000550497,-0.13526,-0.00254054,0.128143,0.00273843,0,0,0,-0.0175335,0,0.0382753,0,0,0,0.0667658,-0.0246,0.594805,0,0,0,0,0,0
0.360503,0.00026784,-1.1083,0.000103562,2.19228,-0.00050047,0.635174,0.000540975,0.00140555,0.00721789,0.000551749,-0.13565,-0.00254516,0.128433,0.00274331,0,0,0,-0.0175621,0,0.038391,0,0,0,0.0667483,-0.0246,0.594844,0,0,0,0,0,0
0.361503,0.000269249,-1.1083,0.000104115,2.19214,-0.000503021,0.635303,0.000543724,0.00140855,0.00731812,0.000552998,-0.13604,-0.00254977,0.128723,0.00274816,0,0,0,-0.0175905,0,0.0385068,0,0,0,0.0667307,-0.0246,0.594882,0,0,0,0,0,0
0.362503,0.000270661,-1.10829,0.00010467,2.19201,-0.000505575,0.635432,0.000546477,0.00141154,0.00741899,0.000554243,-0.13643,-0.00255435,0.129012,0.00275298,0,0,0,-0.0176188,0,0.0386226,0,0,0,0.066713,-0.0246,0.594921,0,0,0,0,0,0
0.363503,0.000272075,-1.10828,0.000105225,2.19187,-0.000508134,0.635561,0.000549235,0.00141453,0.0075205,0.000555485,-0.13682,-0.00255891,0.129301,0.00275779,0,0,0,-0.0176469,0,0.0387386,0,0,0,0.0666954,-0.0246,0.59496,0,0,0,0,0,0
0.364503,0.000273493,-1.10827,0.000105782,2.19173,-0.000510698,0.63569,0.000551998,0.0014175,0.00762265,0.000556724,-0.137211,-0.00256346,0.129589,0.00276257,0,0,0,-0.0176748,0,0.0388545,0,0,0,0.0666777,-0.0246,0.594999,0,0,0,0,0,0
0.365514,0.000274929,-1.10827,0.000106346,2.19159,-0.000513294,0.635822,0.000554795,0.00142051,0.00772568,0.000557976,-0.137605,-0.00256805,0.12988,0.00276741,0,0,0,-0.017703,0,0.0389717,0,0,0,0.0666598,-0.0246,0.595038,0,0,0,0,0,0
0.366608,0.000276487,-1.10826,0.000106958,2.19144,-0.000516109,0.635964,0.000557829,0.00142382,0.00783201,0.000559348,-0.138031,-0.00257319,0.1302,0.00277282,0,0,0,-0.0177349,0,0.039098,0,0,0,0.0666404,-0.0246,0.595081,0,0,0,0,0,0
0.367608,0.000277914,-1.10825,0.000107519,2.1913,-0.000518687,0.636095,0.000560607,0.00142668,0.00794392,0.00056055,-0.138422,-0.00257743,0.13048,0.00277727,0,0,0,-0.0177603,0,0.0392151,0,0,0,0.0666226,-0.0246,0.59512,0,0,0,0,0,0
0.368608,0.000279343,-1.10824,0.00010808,2.19116,-0.00052127,0.636225,0.000563389,0.00142962,0.00804873,0.000561775,-0.138813,-0.00258189,0.130765,0.00278195,0,0,0,-0.0177875,0,0.0393313,0,0,0,0.0666049,-0.0246,0.595159,0,0,0,0,0,0
0.369609,0.000280776,-1.10823,0.000108644,2.19103,-0.000523856,0.636357,0.000566176,0.00143255,0.00815418,0.000562997,-0.139203,-0.00258633,0.13105,0.00278661,0,0,0,-0.0178145,0,0.0394476,0,0,0,0.066587,-0.0246,0.595199,0,0,0,0,0,0
0.370609,0.000282212,-1.10822,0.000109208,2.19089,-0.000526447,0.636488,0.000568968,0.00143547,0.00826029,0.000564216,-0.139594,-0.00259074,0.131335,0.00279125,0,0,0,-0.0178413,0,0.039564,0,0,0,0.0665692,-0.0246,0.595238,0,0,0,0,0,0
0.371609,0.00028365,-1.10822,0.000109773,2.19075,-0.000529043,0.63662,0.000571764,0.00143838,0.00836704,0.000565431,-0.139985,-0.00259514,0.131619,0.00279587,0,0,0,-0.017868,0,0.0396805,0,0,0,0.0665513,-0.0246,0.595278,0,0,0,0,0,0
0.372609,0.000285092,-1.10821,0.00011034,2.19061,-0.000531642,0.636751,0.000574564,0.00144128,0.00847445,0.000566643,-0.140376,-0.00259951,0.131902,0.00280046,0,0,0,-0.0178944,0,0.039797,0,0,0,0.0665334,-0.0246,0.595318,0,0,0,0,0,0
0.373609,0.000286536,-1.1082,0.000110908,2.19046,-0.000534246,0.636884,0.00057737,0.00144417,0.00858252,0.000567852,-0.140766,-0.00260387,0.132185,0.00280502,0,0,0,-0.0179207,0,0.0399136,0,0,0,0.0665155,-0.0246,0.595358,0,0,0,0,0,0
0.374609,0.000287983,-1.10819,0.000111477,2.19032,-0.000536855,0.637016,0.00058018,0.00144706,0.00869124,0.000569057,-0.141157,-0.0026082,0.132467,0.00280957,0,0,0,-0.0179468,0,0.0400302,0,0,0,0.0664975,-0.0246,0.595398,0,0,0,0,0,0
0.375609,0.000289433,-1.10818,0.000112047,2.19018,-0.000539468,0.637149,0.000582994,0.00144993,0.00880062,0.000570259,-0.141548,-0.00261252,0.132749,0.00281409,0,0,0,-0.0179728,0,0.040147,0,0,0,0.0664796,-0.0246,0.595438,0,0,0,0,0,0
0.376609,0.000290886,-1.10817,0.000112619,2.19004,-0.000542085,0.637282,0.000585813,0.0014528,0.00891067,0.000571457,-0.141939,-0.00261681,0.13303,0.00281858,0,0,0,-0.0179985,0,0.0402637,0,0,0,0.0664616,-0.0246,0.595478,0,0,0,0,0,0
0.377609,0.000292342,-1.10816,0.000113192,2.1899,-0.000544706,0.637415,0.000588636,0.00145566,0.00902137,0.000572652,-0.14233,-0.00262108,0.13331,0.00282305,0,0,0,-0.0180241,0,0.0403806,0,0,0,0.0664435,-0.0246,0.595519,0,0,0,0,0,0
0.37861,0.000293801,-1.10815,0.000113766,2.18975,-0.000547332,0.637549,0.000591464,0.00145851,0.00913273,0.000573843,-0.142722,-0.00262533,0.13359,0.0028275,0,0,0,-0.0180495,0,0.0404975,0,0,0,0.0664255,-0.0246,0.595559,0,0,0,0,0,0
0.37961,0.000295262,-1.10814,0.000114341,2.18961,-0.000549962,0.637683,0.000594296,0.00146135,0.00924475,0.000575031,-0.143113,-0.00262955,0.133869,0.00283192,0,0,0,-0.0180747,0,0.0406145,0,0,0,0.0664074,-0.0246,0.5956,0,0,0,0,0,0
0.38061,0.000296727,-1.10814,0.000114917,2.18947,-0.000552596,0.637817,0.000597133,0.00146418,0.00935744,0.000576215,-0.143504,-0.00263376,0.134148,0.00283632,0,0,0,-0.0180997,0,0.0407316,0,0,0,0.0663893,-0.0246,0.59564,0,0,0,0,0,0
0.381878,0.000298588,-1.10812,0.000115649,2.18929,-0.000555943,0.637987,0.000600737,0.00146803,0.00947744,0.000577801,-0.143997,-0.0026398,0.13452,0.00284269,0,0,0,-0.0181372,0,0.0408773,0,0,0,0.0663663,-0.0246,0.595692,0,0,0,0,0,0
0.38298,0.00030021,-1.10811,0.000116288,2.18913,-0.000558857,0.638136,0.000603876,0.00147095,0.00961803,0.000579042,-0.14443,-0.00264393,0.134814,0.00284697,0,0,0,-0.0181606,0,0.0410082,0,0,0,0.0663463,-0.0246,0.595737,0,0,0,0,0,0
0.384233,0.000302058,-1.1081,0.000117015,2.18894,-0.000562178,0.638306,0.000607451,0.00147462,0.00974855,0.000580562,-0.144919,-0.00264952,0.135172,0.00285285,0,0,0,-0.0181946,0,0.0411536,0,0,0,0.0663235,-0.0246,0.595789,0,0,0,0,0,0
0.385738,0.000304284,-1.10809,0.000117892,2.18873,-0.000566176,0.63851,0.000611756,0.00147908,0.00990007,0.000582406,-0.145505,-0.00265641,0.135606,0.00286009,0,0,0,-0.0182368,0,0.0413277,0,0,0,0.066296,-0.0246,0.595851,0,0,0,0,0,0
0.386858,0.000305943,-1.10807,0.000118545,2.18856,-0.000569154,0.638662,0.000614962,0.00148177,0.0100657,0.000583574,-0.145949,-0.00265989,0.135884,0.00286363,0,0,0,-0.0182546,0,0.0414631,0,0,0,0.0662756,-0.0246,0.595898,0,0,0,0,0,0
0.388203,0.000307942,-1.10806,0.000119333,2.18837,-0.000572741,0.638845,0.000618823,0.00148573,0.0102032,0.000585211,-0.146473,-0.00266598,0.13627,0.00287002,0,0,0,-0.0182917,0,0.0416189,0,0,0,0.066251,-0.0246,0.595954,0,0,0,0,0,0
0.389204,0.00030943,-1.10805,0.000119919,2.18822,-0.00057541,0.638982,0.000621697,0.00148811,0.0103534,0.000586243,-0.146869,-0.00266902,0.136517,0.00287311,0,0,0,-0.018307,0,0.0417401,0,0,0,0.0662326,-0.0246,0.595995,0,0,0,0,0,0
0.390204,0.000310921,-1.10804,0.000120506,2.18807,-0.000578084,0.639118,0.000624574,0.00149085,0.0104725,0.000587392,-0.147261,-0.00267302,0.13679,0.00287728,0,0,0,-0.0183302,0,0.0418578,0,0,0,0.0662143,-0.0246,0.596037,0,0,0,0,0,0
0.391204,0.000312415,-1.10803,0.000121095,2.18792,-0.000580761,0.639255,0.000627456,0.00149358,0.0105923,0.000588537,-0.147653,-0.002677,0.137062,0.00288141,0,0,0,-0.0183532,0,0.0419756,0,0,0,0.066196,-0.0246,0.596079,0,0,0,0,0,0
0.392204,0.000313911,-1.10802,0.000121685,2.18778,-0.000583442,0.639393,0.000630342,0.0014963,0.0107128,0.000589679,-0.148045,-0.00268095,0.137334,0.00288553,0,0,0,-0.0183761,0,0.0420934,0,0,0,0.0661776,-0.0246,0.596121,0,0,0,0,0,0
0.393204,0.000315411,-1.10801,0.000122276,2.18763,-0.000586128,0.63953,0.000633232,0.00149901,0.010834,0.000590817,-0.148438,-0.00268489,0.137605,0.00288962,0,0,0,-0.0183987,0,0.0422113,0,0,0,0.0661592,-0.0246,0.596163,0,0,0,0,0,0
0.394204,0.000316912,-1.108,0.000122868,2.18748,-0.000588817,0.639668,0.000636126,0.00150171,0.0109558,0.000591951,-0.14883,-0.0026888,0.137875,0.00289368,0,0,0,-0.0184212,0,0.0423293,0,0,0,0.0661407,-0.0246,0.596206,0,0,0,0,0,0
0.395204,0.000318417,-1.10799,0.000123461,2.18733,-0.00059151,0.639807,0.000639024,0.0015044,0.0110783,0.000593081,-0.149222,-0.00269269,0.138145,0.00289772,0,0,0,-0.0184435,0,0.0424473,0,0,0,0.0661223,-0.0246,0.596248,0,0,0,0,0,0
0.396204,0.000319924,-1.10797,0.000124055,2.18718,-0.000594207,0.639945,0.000641926,0.00150708,0.0112016,0.000594208,-0.149614,-0.00269656,0.138414,0.00290173,0,0,0,-0.0184656,0,0.0425654,0,0,0,0.0661038,-0.0246,0.596291,0,0,0,0,0,0
0.397205,0.000321434,-1.10796,0.000124651,2.18703,-0.000596907,0.640084,0.000644832,0.00150976,0.0113255,0.00059533,-0.150007,-0.00270041,0.138683,0.00290572,0,0,0,-0.0184874,0,0.0426836,0,0,0,0.0660853,-0.0246,0.596334,0,0,0,0,0,0
0.398205,0.000322947,-1.10795,0.000125247,2.18688,-0.000599612,0.640223,0.000647743,0.00151242,0.01145,0.000596449,-0.150399,-0.00270423,0.13895,0.00290968,0,0,0,-0.0185091,0,0.0428018,0,0,0,0.0660668,-0.0246,0.596376,0,0,0,0,0,0
0.399205,0.000324462,-1.10794,0.000125845,2.18673,-0.00060232,0.640362,0.000650657,0.00151507,0.0115753,0.000597563,-0.150792,-0.00270803,0.139218,0.00291362,0,0,0,-0.0185306,0,0.0429201,0,0,0,0.0660483,-0.0246,0.596419,0,0,0,0,0,0
0.400205,0.00032598,-1.10793,0.000126444,2.18658,-0.000605033,0.640501,0.000653575,0.00151771,0.0117013,0.000598674,-0.151184,-0.00271181,0.139484,0.00291753,0,0,0,-0.018552,0,0.0430385,0,0,0,0.0660297,-0.0246,0.596462,0,0,0,0,0,0
0.401205,0.000327501,-1.10792,0.000127043,2.18642,-0.000607749,0.640641,0.000656496,0.00152034,0.011828,0.000599781,-0.151577,-0.00271557,0.13975,0.00292142,0,0,0,-0.0185731,0,0.0431569,0,0,0,0.0660111,-0.0246,0.596505,0,0,0,0,0,0
0.402205,0.000329024,-1.1079,0.000127644,2.18627,-0.000610468,0.640781,0.000659422,0.00152296,0.0119553,0.000600883,-0.15197,-0.0027193,0.140016,0.00292528,0,0,0,-0.018594,0,0.0432754,0,0,0,0.0659925,-0.0246,0.596549,0,0,0,0,0,0
0.403205,0.00033055,-1.10789,0.000128246,2.18612,-0.000613191,0.640921,0.000662351,0.00152558,0.0120833,0.000601982,-0.152362,-0.00272301,0.14028,0.00292912,0,0,0,-0.0186147,0,0.043394,0,0,0,0.0659739,-0.0246,0.596592,0,0,0,0,0,0
0.404205,0.000332078,-1.10788,0.00012885,2.18597,-0.000615918,0.641062,0.000665285,0.00152818,0.0122121,0.000603077,-0.152755,-0.0027267,0.140544,0.00293293,0,0,0,-0.0186352,0,0.0435126,0,0,0,0.0659553,-0.0246,0.596636,0,0,0,0,0,0
0.405205,0.000333609,-1.10787,0.000129454,2.18581,-0.000618649,0.641203,0.000668222,0.00153077,0.0123415,0.000604167,-0.153148,-0.00273037,0.140808,0.00293671,0,0,0,-0.0186555,0,0.0436313,0,0,0,0.0659366,-0.0246,0.596679,0,0,0,0,0,0
0.406206,0.000335142,-1.10786,0.000130059,2.18566,-0.000621383,0.641344,0.000671162,0.00153335,0.0124716,0.000605253,-0.153541,-0.00273401,0.14107,0.00294047,0,0,0,-0.0186757,0,0.04375,0,0,0,0.0659179,-0.0246,0.596723,0,0,0,0,0,0
0.407206,0.000336678,-1.10784,0.000130666,2.18551,-0.000624121,0.641485,0.000674107,0.00153592,0.0126024,0.000606336,-0.153934,-0.00273764,0.141333,0.0029442,0,0,0,-0.0186956,0,0.0438689,0,0,0,0.0658992,-0.0246,0.596767,0,0,0,0,0,0
0.408206,0.000338217,-1.10783,0.000131273,2.18535,-0.000626863,0.641627,0.000677055,0.00153848,0.0127339,0.000607414,-0.154327,-0.00274123,0.141594,0.00294791,0,0,0,-0.0187153,0,0.0439878,0,0,0,0.0658805,-0.0246,0.596811,0,0,0,0,0,0
0.409206,0.000339758,-1.10782,0.000131882,2.1852,-0.000629608,0.641769,0.000680007,0.00154103,0.0128662,0.000608488,-0.15472,-0.00274481,0.141855,0.00295159,0,0,0,-0.0187349,0,0.0441067,0,0,0,0.0658618,-0.0246,0.596855,0,0,0,0,0,0
0.410206,0.000341302,-1.1078,0.000132491,2.18504,-0.000632357,0.641911,0.000682963,0.00154357,0.0129991,0.000609558,-0.155113,-0.00274836,0.142115,0.00295524,0,0,0,-0.0187542,0,0.0442257,0,0,0,0.065843,-0.0246,0.596899,0,0,0,0,0,0
0.411206,0.000342848,-1.10779,0.000133102,2.18489,-0.000635109,0.642053,0.000685922,0.0015461,0.0131327,0.000610624,-0.155506,-0.0027519,0.142375,0.00295887,0,0,0,-0.0187733,0,0.0443448,0,0,0,0.0658243,-0.0246,0.596944,0,0,0,0,0,0
0.412363,0.00034464,-1.10778,0.00013381,2.18471,-0.000638297,0.642218,0.00068935,0.00154921,0.0132721,0.000611918,-0.155958,-0.00275645,0.142688,0.0029636,0,0,0,-0.0187994,0,0.0444809,0,0,0,0.0658025,-0.0246,0.596995,0,0,0,0,0,0
0.413363,0.000346192,-1.10776,0.000134423,2.18455,-0.000641057,0.642361,0.000692317,0.00155152,0.0134233,0.000612908,-0.156354,-0.00275943,0.142932,0.00296661,0,0,0,-0.0188139,0,0.0446019,0,0,0,0.0657837,-0.0246,0.59704,0,0,0,0,0,0
0.414363,0.000347746,-1.10775,0.000135037,2.18439,-0.000643821,0.642505,0.000695288,0.00155402,0.0135591,0.00061396,-0.156747,-0.00276289,0.14319,0.00297015,0,0,0,-0.0188324,0,0.0447212,0,0,0,0.0657648,-0.0246,0.597084,0,0,0,0,0,0
0.415363,0.000349303,-1.10774,0.000135652,2.18424,-0.000646587,0.642648,0.000698262,0.0015565,0.0136957,0.000615008,-0.157141,-0.00276633,0.143447,0.00297367,0,0,0,-0.0188507,0,0.0448406,0,0,0,0.065746,-0.0246,0.597129,0,0,0,0,0,0
0.416364,0.000350862,-1.10772,0.000136268,2.18408,-0.000649358,0.642792,0.00070124,0.00155898,0.013833,0.000616052,-0.157534,-0.00276974,0.143703,0.00297717,0,0,0,-0.0188688,0,0.04496,0,0,0,0.0657271,-0.0246,0.597174,0,0,0,0,0,0
0.417364,0.000352424,-1.10771,0.000136885,2.18392,-0.000652131,0.642936,0.000704221,0.00156144,0.013971,0.000617092,-0.157928,-0.00277313,0.143958,0.00298064,0,0,0,-0.0188866,0,0.0450796,0,0,0,0.0657082,-0.0246,0.597219,0,0,0,0,0,0
0.418364,0.000353988,-1.10769,0.000137503,2.18376,-0.000654908,0.64308,0.000707205,0.0015639,0.0141096,0.000618127,-0.158321,-0.00277649,0.144213,0.00298408,0,0,0,-0.0189043,0,0.0451991,0,0,0,0.0656893,-0.0246,0.597264,0,0,0,0,0,0
0.419364,0.000355555,-1.10768,0.000138123,2.1836,-0.000657688,0.643224,0.000710193,0.00156634,0.014249,0.000619157,-0.158715,-0.00277983,0.144467,0.00298749,0,0,0,-0.0189218,0,0.0453188,0,0,0,0.0656704,-0.0246,0.59731,0,0,0,0,0,0
0.420567,0.000357443,-1.10766,0.000138869,2.18341,-0.000661039,0.643399,0.000713794,0.00156953,0.0143961,0.000620484,-0.159185,-0.0027845,0.144791,0.00299232,0,0,0,-0.0189482,0,0.0454604,0,0,0,0.0656476,-0.0246,0.597365,0,0,0,0,0,0
0.421567,0.000359015,-1.10765,0.000139491,2.18325,-0.000663827,0.643544,0.000716789,0.00157169,0.0145587,0.000621413,-0.159582,-0.00278712,0.145025,0.00299492,0,0,0,-0.0189595,0,0.0455826,0,0,0,0.0656286,-0.0246,0.59741,0,0,0,0,0,0
0.422568,0.00036059,-1.10763,0.000140113,2.18309,-0.000666617,0.643689,0.000719788,0.0015741,0.0147004,0.000622429,-0.159976,-0.00279038,0.145277,0.00299824,0,0,0,-0.0189764,0,0.0457024,0,0,0,0.0656096,-0.0246,0.597456,0,0,0,0,0,0
0.423568,0.000362166,-1.10762,0.000140737,2.18293,-0.000669411,0.643835,0.00072279,0.00157649,0.0148428,0.000623441,-0.16037,-0.00279363,0.145528,0.00300155,0,0,0,-0.018993,0,0.0458223,0,0,0,0.0655906,-0.0246,0.597502,0,0,0,0,0,0
0.424568,0.000363745,-1.1076,0.000141361,2.18277,-0.000672208,0.64398,0.000725795,0.00157888,0.0149859,0.000624449,-0.160763,-0.00279685,0.145779,0.00300482,0,0,0,-0.0190094,0,0.0459423,0,0,0,0.0655716,-0.0246,0.597548,0,0,0,0,0,0
0.425568,0.000365327,-1.10759,0.000141987,2.18261,-0.000675009,0.644126,0.000728803,0.00158126,0.0151297,0.000625452,-0.161157,-0.00280005,0.146029,0.00300807,0,0,0,-0.0190255,0,0.0460623,0,0,0,0.0655526,-0.0246,0.597594,0,0,0,0,0,0
0.426658,0.000367053,-1.10757,0.00014267,2.18243,-0.000678064,0.644286,0.000732085,0.00158395,0.0152775,0.000626582,-0.161585,-0.00280381,0.146309,0.00301192,0,0,0,-0.0190455,0,0.0461921,0,0,0,0.0655318,-0.0246,0.597644,0,0,0,0,0,0
0.427666,0.000368651,-1.10756,0.000143302,2.18227,-0.000680893,0.644434,0.000735124,0.00158621,0.0154329,0.000627545,-0.161983,-0.0028067,0.146552,0.00301482,0,0,0,-0.019059,0,0.0463142,0,0,0,0.0655126,-0.0246,0.597691,0,0,0,0,0,0
0.428666,0.00037024,-1.10754,0.000143931,2.18211,-0.000683703,0.64458,0.000738142,0.00158855,0.0155798,0.00062853,-0.162377,-0.0028098,0.146799,0.00301795,0,0,0,-0.0190743,0,0.0464346,0,0,0,0.0654935,-0.0246,0.597737,0,0,0,0,0,0
0.429666,0.000371831,-1.10752,0.00014456,2.18195,-0.000686516,0.644727,0.000741164,0.00159088,0.0157266,0.000629514,-0.162771,-0.0028129,0.147046,0.00302109,0,0,0,-0.0190897,0,0.0465549,0,0,0,0.0654744,-0.0246,0.597784,0,0,0,0,0,0
0.430666,0.000373425,-1.10751,0.000145191,2.18178,-0.000689333,0.644875,0.000744188,0.0015932,0.0158741,0.000630494,-0.163166,-0.00281597,0.147293,0.0030242,0,0,0,-0.0191048,0,0.0466753,0,0,0,0.0654553,-0.0246,0.59783,0,0,0,0,0,0
0.431666,0.000375021,-1.10749,0.000145823,2.18162,-0.000692152,0.645022,0.000747216,0.0015955,0.0160223,0.000631469,-0.16356,-0.00281903,0.147539,0.00302728,0,0,0,-0.0191197,0,0.0467957,0,0,0,0.0654362,-0.0246,0.597877,0,0,0,0,0,0
0.432666,0.000376618,-1.10748,0.000146455,2.18146,-0.000694974,0.64517,0.000750247,0.0015978,0.0161713,0.000632439,-0.163954,-0.00282206,0.147784,0.00303034,0,0,0,-0.0191344,0,0.0469162,0,0,0,0.0654171,-0.0246,0.597924,0,0,0,0,0,0
0.433666,0.000378219,-1.10746,0.000147089,2.18129,-0.0006978,0.645318,0.000753281,0.00160009,0.016321,0.000633405,-0.164348,-0.00282506,0.148029,0.00303337,0,0,0,-0.0191488,0,0.0470368,0,0,0,0.0653979,-0.0246,0.597971,0,0,0,0,0,0
0.434666,0.000379821,-1.10744,0.000147723,2.18113,-0.000700628,0.645466,0.000756317,0.00160236,0.0164714,0.000634366,-0.164742,-0.00282804,0.148272,0.00303637,0,0,0,-0.0191631,0,0.0471574,0,0,0,0.0653787,-0.0246,0.598018,0,0,0,0,0,0
0.435667,0.000381426,-1.10743,0.000148358,2.18096,-0.000703459,0.645615,0.000759357,0.00160462,0.0166226,0.000635322,-0.165137,-0.002831,0.148515,0.00303934,0,0,0,-0.0191771,0,0.0472781,0,0,0,0.0653596,-0.0246,0.598066,0,0,0,0,0,0
0.436793,0.000383237,-1.10741,0.000149075,2.18077,-0.000706653,0.645783,0.000762785,0.00160734,0.0167793,0.000636458,-0.165579,-0.00283475,0.148801,0.00304316,0,0,0,-0.0191965,0,0.0474126,0,0,0,0.0653379,-0.0246,0.598119,0,0,0,0,0,0
0.437793,0.000384846,-1.10739,0.000149713,2.18061,-0.000709491,0.645932,0.000765831,0.0016094,0.0169464,0.000637339,-0.165975,-0.0028372,0.14903,0.00304557,0,0,0,-0.0192063,0,0.047535,0,0,0,0.0653187,-0.0246,0.598166,0,0,0,0,0,0
0.438793,0.000386458,-1.10737,0.000150351,2.18044,-0.000712331,0.646081,0.00076888,0.00161162,0.0170999,0.00063828,-0.166369,-0.00284008,0.149271,0.00304845,0,0,0,-0.0192197,0,0.0476559,0,0,0,0.0652995,-0.0246,0.598214,0,0,0,0,0,0
0.439793,0.000388072,-1.10736,0.00015099,2.18028,-0.000715174,0.64623,0.000771932,0.00161384,0.017254,0.000639217,-0.166764,-0.00284294,0.149511,0.00305131,0,0,0,-0.0192328,0,0.0477769,0,0,0,0.0652803,-0.0246,0.598262,0,0,0,0,0,0
0.440794,0.000389688,-1.10734,0.000151631,2.18011,-0.00071802,0.64638,0.000774986,0.00161604,0.017409,0.000640148,-0.167158,-0.00284577,0.149751,0.00305414,0,0,0,-0.0192457,0,0.0478979,0,0,0,0.065261,-0.0246,0.59831,0,0,0,0,0,0
0.441794,0.000391307,-1.10732,0.000152272,2.17994,-0.000720869,0.64653,0.000778043,0.00161824,0.0175646,0.000641075,-0.167553,-0.00284858,0.14999,0.00305695,0,0,0,-0.0192585,0,0.048019,0,0,0,0.0652417,-0.0246,0.598358,0,0,0,0,0,0
0.442794,0.000392928,-1.1073,0.000152914,2.17977,-0.000723721,0.64668,0.000781104,0.00162042,0.017721,0.000641996,-0.167947,-0.00285136,0.150228,0.00305972,0,0,0,-0.019271,0,0.0481402,0,0,0,0.0652225,-0.0246,0.598406,0,0,0,0,0,0
0.443794,0.00039455,-1.10729,0.000153557,2.1796,-0.000726576,0.646831,0.000784167,0.00162259,0.0178781,0.000642913,-0.168342,-0.00285412,0.150465,0.00306247,0,0,0,-0.0192832,0,0.0482614,0,0,0,0.0652032,-0.0246,0.598454,0,0,0,0,0,0
0.444794,0.000396175,-1.10727,0.000154201,2.17944,-0.000729433,0.646982,0.000787232,0.00162474,0.018036,0.000643825,-0.168736,-0.00285686,0.150702,0.00306519,0,0,0,-0.0192953,0,0.0483827,0,0,0,0.0651839,-0.0246,0.598503,0,0,0,0,0,0
0.445794,0.000397803,-1.10725,0.000154846,2.17927,-0.000732293,0.647133,0.000790301,0.00162689,0.0181946,0.000644732,-0.169131,-0.00285957,0.150938,0.00306788,0,0,0,-0.0193072,0,0.0485041,0,0,0,0.0651646,-0.0246,0.598551,0,0,0,0,0,0
0.446794,0.000399432,-1.10723,0.000155491,2.1791,-0.000735155,0.647284,0.000793371,0.00162902,0.0183539,0.000645633,-0.169526,-0.00286225,0.151173,0.00307054,0,0,0,-0.0193188,0,0.0486255,0,0,0,0.0651452,-0.0246,0.5986,0,0,0,0,0,0
0.447795,0.000401063,-1.10721,0.000156138,2.17893,-0.000738021,0.647435,0.000796445,0.00163114,0.018514,0.00064653,-0.16992,-0.00286492,0.151408,0.00307318,0,0,0,-0.0193302,0,0.048747,0,0,0,0.0651259,-0.0246,0.598649,0,0,0,0,0,0
0.448795,0.000402697,-1.10719,0.000156785,2.17876,-0.000740889,0.647587,0.000799521,0.00163325,0.0186749,0.000647422,-0.170315,-0.00286755,0.151642,0.00307578,0,0,0,-0.0193413,0,0.0488686,0,0,0,0.0651066,-0.0246,0.598697,0,0,0,0,0,0
0.449795,0.000404332,-1.10718,0.000157434,2.17859,-0.000743759,0.647739,0.0008026,0.00163535,0.0188364,0.000648308,-0.17071,-0.00287016,0.151875,0.00307836,0,0,0,-0.0193523,0,0.0489902,0,0,0,0.0650872,-0.0246,0.598746,0,0,0,0,0,0
0.450795,0.00040597,-1.10716,0.000158083,2.17841,-0.000746632,0.647891,0.000805681,0.00163744,0.0189987,0.00064919,-0.171105,-0.00287275,0.152107,0.00308091,0,0,0,-0.019363,0,0.0491118,0,0,0,0.0650678,-0.0246,0.598796,0,0,0,0,0,0
0.451795,0.000407609,-1.10714,0.000158733,2.17824,-0.000749508,0.648043,0.000808765,0.00163951,0.0191618,0.000650066,-0.171499,-0.00287531,0.152339,0.00308343,0,0,0,-0.0193735,0,0.0492336,0,0,0,0.0650485,-0.0246,0.598845,0,0,0,0,0,0
0.452795,0.000409252,-1.10712,0.000159384,2.17807,-0.000752387,0.648196,0.000811852,0.00164157,0.0193256,0.000650937,-0.171894,-0.00287785,0.15257,0.00308592,0,0,0,-0.0193838,0,0.0493554,0,0,0,0.0650291,-0.0246,0.598894,0,0,0,0,0,0
0.453796,0.000410895,-1.1071,0.000160036,2.1779,-0.000755268,0.648349,0.000814941,0.00164362,0.0194902,0.000651803,-0.172289,-0.00288036,0.152801,0.00308839,0,0,0,-0.0193939,0,0.0494773,0,0,0,0.0650097,-0.0246,0.598944,0,0,0,0,0,0
0.454796,0.000412541,-1.10708,0.000160689,2.17773,-0.000758151,0.648502,0.000818032,0.00164566,0.0196555,0.000652664,-0.172684,-0.00288285,0.15303,0.00309082,0,0,0,-0.0194037,0,0.0495992,0,0,0,0.0649902,-0.0246,0.598993,0,0,0,0,0,0
0.455796,0.000414189,-1.10706,0.000161343,2.17755,-0.000761037,0.648655,0.000821126,0.00164769,0.0198216,0.00065352,-0.173079,-0.00288531,0.153259,0.00309323,0,0,0,-0.0194133,0,0.0497212,0,0,0,0.0649708,-0.0246,0.599043,0,0,0,0,0,0
0.456796,0.000415839,-1.10704,0.000161997,2.17738,-0.000763925,0.648809,0.000824222,0.0016497,0.0199884,0.00065437,-0.173474,-0.00288775,0.153487,0.00309561,0,0,0,-0.0194227,0,0.0498433,0,0,0,0.0649514,-0.0246,0.599093,0,0,0,0,0,0
0.457796,0.000417491,-1.10702,0.000162652,2.17721,-0.000766815,0.648962,0.00082732,0.0016517,0.0201559,0.000655215,-0.173869,-0.00289016,0.153714,0.00309796,0,0,0,-0.0194318,0,0.0499654,0,0,0,0.064932,-0.0246,0.599143,0,0,0,0,0,0
0.458796,0.000419145,-1.107,0.000163309,2.17703,-0.000769709,0.649116,0.000830422,0.00165369,0.0203243,0.000656055,-0.174264,-0.00289255,0.153941,0.00310028,0,0,0,-0.0194408,0,0.0500876,0,0,0,0.0649125,-0.0246,0.599193,0,0,0,0,0,0
0.459797,0.000420801,-1.10698,0.000163966,2.17686,-0.000772604,0.64927,0.000833525,0.00165566,0.0204933,0.000656889,-0.174659,-0.00289491,0.154167,0.00310257,0,0,0,-0.0194495,0,0.0502099,0,0,0,0.0648931,-0.0246,0.599243,0,0,0,0,0,0
0.460797,0.000422459,-1.10696,0.000164624,2.17668,-0.000775502,0.649425,0.00083663,0.00165763,0.0206632,0.000657718,-0.175054,-0.00289725,0.154392,0.00310483,0,0,0,-0.0194579,0,0.0503322,0,0,0,0.0648736,-0.0246,0.599293,0,0,0,0,0,0
0.461797,0.000424119,-1.10694,0.000165282,2.17651,-0.000778402,0.64958,0.000839737,0.00165958,0.0208337,0.000658542,-0.175449,-0.00289956,0.154617,0.00310707,0,0,0,-0.0194662,0,0.0504545,0,0,0,0.0648541,-0.0246,0.599344,0,0,0,0,0,0
0.462797,0.000425781,-1.10692,0.000165942,2.17633,-0.000781304,0.649734,0.000842847,0.00166152,0.0210051,0.00065936,-0.175844,-0.00290184,0.15484,0.00310927,0,0,0,-0.0194742,0,0.050577,0,0,0,0.0648346,-0.0246,0.599394,0,0,0,0,0,0
0.463797,0.000427444,-1.10689,0.000166602,2.17615,-0.000784208,0.649889,0.000845959,0.00166344,0.0211772,0.000660173,-0.176239,-0.0029041,0.155063,0.00311145,0,0,0,-0.0194819,0,0.0506995,0,0,0,0.0648152,-0.0246,0.599445,0,0,0,0,0,0
0.464797,0.00042911,-1.10687,0.000167263,2.17598,-0.000787115,0.650045,0.000849072,0.00166536,0.02135,0.000660981,-0.176634,-0.00290634,0.155285,0.00311359,0,0,0,-0.0194895,0,0.050822,0,0,0,0.0647957,-0.0246,0.599496,0,0,0,0,0,0
0.465797,0.000430777,-1.10685,0.000167925,2.1758,-0.000790024,0.6502,0.000852188,0.00166726,0.0215236,0.000661783,-0.177029,-0.00290855,0.155507,0.00311571,0,0,0,-0.0194968,0,0.0509446,0,0,0,0.0647762,-0.0246,0.599547,0,0,0,0,0,0
0.466797,0.000432446,-1.10683,0.000168587,2.17562,-0.000792935,0.650356,0.000855307,0.00166914,0.021698,0.000662579,-0.177424,-0.00291073,0.155728,0.0031178,0,0,0,-0.0195039,0,0.0510673,0,0,0,0.0647566,-0.0246,0.599598,0,0,0,0,0,0
0.467797,0.000434118,-1.10681,0.000169251,2.17545,-0.000795848,0.650512,0.000858427,0.00167102,0.0218731,0.00066337,-0.177819,-0.00291289,0.155948,0.00311986,0,0,0,-0.0195107,0,0.05119,0,0,0,0.0647371,-0.0246,0.599649,0,0,0,0,0,0
0.468798,0.000435791,-1.10679,0.000169915,2.17527,-0.000798763,0.650668,0.000861549,0.00167288,0.022049,0.000664155,-0.178214,-0.00291502,0.156167,0.00312189,0,0,0,-0.0195173,0,0.0513128,0,0,0,0.0647176,-0.0246,0.599701,0,0,0,0,0,0
